!!!COM: L. van BEETHOVEN
!!!OTL: String Quartet Op.18 No.5
**kern	**dynam	**kern	**dynam	**kern	**dynam	**kern	**dynam	**mxhm
*part4	*part4	*part3	*part3	*part2	*part2	*part1	*part1	*part1
*staff4	*	*staff3	*	*staff2	*	*staff1	*	*
*I"Violoncello	*	*I"Viola	*	*I"Violin 2	*	*I"Violin 1	*	*
*clefF4	*	*clefC3	*	*clefG2	*	*clefG2	*	*
*k[f#c#]	*	*k[f#c#]	*	*k[f#c#]	*	*k[f#c#]	*	*
*D:	*	*D:	*	*D:	*	*D:	*	*
*M6/8	*	*M6/8	*	*M6/8	*	*M6/8	*	*
=1	=1	=1	=1	=1	=1	=1	=1	=1
!	!	!	!	!	!LO:DY:a	!LO:TX:a:B:t=Allegro	!	!
8D'L	f	4r	.	4r	f	4a 4ff# 4ddd	.	.
8F#'	.	.	.	.	.	.	.	.
8A'J	.	8r	.	8r	.	8r	.	I
.	.	.	.	.	.	16qqee/LL	sfp	.
.	.	.	.	.	.	16qqdd/	.	.
.	.	.	.	.	.	16qqcc#/JJ	.	.
4d	sf	4f#	sf	4a	sf	8dd'L	.	.
.	.	.	.	.	.	8ee'	.	.
8r	.	8r	.	8r	.	8ff#'J	.	.
=2	=2	=2	=2	=2	=2	=2	=2	=2
8D'L	.	4r	.	4r	.	4r	.	I
8F#'	.	.	.	.	.	.	.	.
8A'J	.	8r	.	8r	.	8r	.	.
.	.	.	.	.	.	16qqgg/LL	sfp	.
.	.	.	.	.	.	16qqff#/	.	.
.	.	.	.	.	.	16qqee/JJ	.	.
4d	sf	4f#	sf	4a	sf	8ff#'L	.	.
.	.	.	.	.	.	8gg'	.	.
8r	.	8r	.	8r	.	8aa'J	.	.
=3	=3	=3	=3	=3	=3	=3	=3	=3
8D'L	.	4r	.	4r	.	4r	.	.
8F#'	.	.	.	.	.	.	.	.
8A'J	.	8r	.	8r	.	8r	.	.
.	.	.	.	.	.	16qqbb/LL	sfp	.
.	.	.	.	.	.	16qqaa/	.	.
.	.	.	.	.	.	16qqgg#X/JJ	.	.
4d	sf	4f#	sf	4a	sf	8aa'L	.	.
.	.	.	.	.	.	8bb'	.	.
8r	.	8r	.	8r	.	8ccc#'J	.	.
=4	=4	=4	=4	=4	=4	=4	=4	=4
2.r	.	2.r	.	2.r	.	8ddd'L	.	.
.	.	.	.	.	.	8eee'	.	.
.	.	.	.	.	.	8fff#'J	.	.
.	.	.	.	.	.	8fff#'L	.	.
.	.	.	.	.	.	8ggg'	.	.
.	.	.	.	.	.	8aaa'J	.	.
=5	=5	=5	=5	=5	=5	=5	=5	=5
(8DL	p	(2.g	p	(2.b	p	(4.bbb	.	I[IV
8G	.	.	.	.	.	.	.	.
8BJ)	.	.	.	.	.	.	.	.
([4.D	.	.	.	.	.	8gggL)	.	.
.	.	.	.	.	.	8r	.	.
.	.	.	.	.	.	8fff#J	.	.
=6	=6	=6	=6	=6	=6	=6	=6	=6
8DL]	.	[2.e)	.	[2.cc#)	.	8eeeL	.	V2
8G	.	.	.	.	.	8r	.	.
8AJ)	.	.	.	.	.	8fff#J	.	.
([4.D	.	.	.	.	.	8gggL	.	.
.	.	.	.	.	.	8r	.	.
.	.	.	.	.	.	8ggg#XJ	.	.
=7	=7	=7	=7	=7	=7	=7	=7	=7
8DL]	.	(4.e]	.	(4.cc#]	.	(4.aaa	.	.
8G	.	.	.	.	.	.	.	.
8AJ)	.	.	.	.	.	.	.	.
8DL	.	[4.f#)	.	[4.dd	.	8fff#L)	.	I6
8F#	.	.	.	.	.	8ddd'	.	.
8AJ	.	.	.	.	.	8eee'J	.	.
=8	=8	=8	=8	=8	=8	=8	=8	=8
(8DL	.	4.f#]	.	(4.dd])	.	8fff#'L	.	.
8F#	.	.	.	.	.	8fff#'	.	.
8AJ)	.	.	.	.	.	8ggg'J	.	.
(8DL	.	4.f#	.	4.cc)	.	8aaa'L	.	viio6/IV
8A	.	.	.	.	.	8aaa'	.	.
8cJ)	.	.	.	.	.	8aaa#X'J	.	.
=9	=9	=9	=9	=9	=9	=9	=9	=9
(8DL	.	(2.g	.	(2.b	.	(4.bbb	.	IV
8G	.	.	.	.	.	.	.	.
8BJ)	.	.	.	.	.	.	.	.
([4.D	.	.	.	.	.	4ggg)	.	.
.	.	.	.	.	.	8fff#'	.	.
=10	=10	=10	=10	=10	=10	=10	=10	=10
8DL]	.	2.e	.	2.cc#	.	8eeeL	.	V2
8G	.	.	.	.	.	8r	.	.
8AJ)	.	.	.	.	.	8fff#J	.	.
(8DL	.	.	.	.	.	8gggL	.	viio6
8E	.	.	.	.	.	8r	.	.
8GJ)	.	.	.	.	.	8aaaJ	.	.
=11	=11	=11	=11	=11	=11	=11	=11	=11
4D	.	4f#)	.	4dd)	.	4ddd	.	I6]
8r	.	8r	.	8r	.	8r	.	.
4.r	.	4r	.	4r	.	(16ddLL	p	.
.	.	.	.	.	.	16ee	.	.
.	.	.	.	.	.	16ff#	.	.
.	.	.	.	.	.	16gg	.	.
.	.	8r	.	8r	.	16aa	.	.
.	.	.	.	.	.	16ff#JJ)	.	.
=12	=12	=12	=12	=12	=12	=12	=12	=12
8r	.	8r	.	8r	.	4gg'	.	V7
8A'L	p	8A'L	p	8a'L	p	.	.	.
8A'J	.	8A'J	.	8a'J	.	8r	.	.
4r	.	4r	.	4r	.	16aa'LL	.	.
.	.	.	.	.	.	16bb'	.	.
.	.	.	.	.	.	16ccc#'	.	.
.	.	.	.	.	.	16ddd'	.	.
8r	.	8r	.	8r	.	16eee'	.	.
.	.	.	.	.	.	16ccc#'JJ	.	.
=13	=13	=13	=13	=13	=13	=13	=13	=13
8r	.	8r	.	8r	.	4ddd'	.	I6
8F#'L	.	8F#'L	.	8f#'L	.	.	.	.
8F#'J	.	8F#'J	.	8f#'J	.	8r	.	.
4r	.	4r	.	4r	.	16dd'LL	.	.
.	.	.	.	.	.	16ee'	.	.
.	.	.	.	.	.	16ff#'	.	.
.	.	.	.	.	.	16gg'	.	.
8r	.	8r	.	8r	.	16aa'	.	.
.	.	.	.	.	.	16ff#'JJ	.	.
=14	=14	=14	=14	=14	=14	=14	=14	=14
8r	.	8r	.	8r	.	8bb'L	.	IV
8G'L	.	8G'L	.	8g'L	.	8g'	.	.
8G'	.	8G'	.	8g'	.	8g'J	.	.
8r	.	8r	.	8r	.	8ccc#'L	.	V
8A'	.	8A'	.	8a'	.	8a'	.	.
8A'J	.	8A'J	.	8a'J	.	8a'J	.	.
=15	=15	=15	=15	=15	=15	=15	=15	=15
8r	.	8r	.	8r	.	8ddd'L	.	I\\
8D'L	.	8d'L	.	8d'L	.	8d'	.	.
8D'J	.	8d'J	.	8d'J	.	8d'J	.	.
4r	.	4r	.	4r	.	(16ddLL	.	.
.	.	.	.	.	.	16ee	.	.
.	.	.	.	.	.	16ff#	.	.
.	.	.	.	.	.	16gg	.	.
8r	.	8r	.	8r	.	16aa	.	.
.	.	.	.	.	.	16ff#JJ)	.	.
=16	=16	=16	=16	=16	=16	=16	=16	=16
8r	.	8r	.	8r	.	4gg'	.	V7
8A'L	.	8A'L	.	8a'L	.	.	.	.
8A'J	.	8A'J	.	8a'J	.	8r	.	.
4r	.	4r	.	4r	.	(16aaLL	.	.
.	.	.	.	.	.	16bb	.	.
.	.	.	.	.	.	16ccc#	.	.
.	.	.	.	.	.	16ddd	.	.
8r	.	8r	.	8r	.	16eee	.	.
.	.	.	.	.	.	16ccc#JJ)	.	.
=17	=17	=17	=17	=17	=17	=17	=17	=17
!	!	!	!	!	!	!LO:TX:b:t=cresc.	!	!
8r	.	8r	.	8r	.	8dddL	.	I6
!LO:TX:b:t=cresc.	!	!LO:TX:b:t=cresc.	!	!LO:TX:b:t=cresc.	!	!	!	!
8F#L	.	8F#L	.	8f#L	.	8dd	.	.
8F#	.	8F#	.	8f#	.	8ddJ	.	.
8r	.	8r	.	8r	.	8dddL	.	V2/IV
8c	.	8c	.	8cc	.	8cc	.	.
8cJ	.	8cJ	.	8ccJ	.	8ccJ	.	.
=18	=18	=18	=18	=18	=18	=18	=18	=18
8r	.	8r	.	8r	.	8dddL	.	IV6
8BL	.	8BL	.	8bL	.	8b	.	.
8B	.	8B	.	8b	.	8bJ	.	.
8r	.	8r	.	8r	.	8dddL	.	iv6
8B-	.	8B-	.	8b-	.	8b-	.	.
8B-J	.	8B-J	.	8b-J	.	8b-J	.	.
=19	=19	=19	=19	=19	=19	=19	=19	=19
4.A	p	[2.A	p	4a	p	(8aL	.	V
.	.	.	.	.	.	16cc#L	.	.
.	.	.	.	.	.	16ee	.	.
.	.	.	.	8r	.	16aa	.	.
.	.	.	.	.	.	16ccc#JJ)	.	.
(8GL	.	.	.	4r	.	(4eee	.	V2
8E	.	.	.	.	.	.	.	.
8GJ	.	.	.	8r	.	8ccc#	.	.
=20	=20	=20	=20	=20	=20	=20	=20	=20
8F#L	.	4.A_	.	8r	.	4ddd	.	I6
8D	.	.	.	(8ff#L	.	.	.	.
8C#J	.	.	.	8eeJ	.	8eee	.	.
8DL	.	(8AL]	.	8ff#L	.	4fff#	.	I
8BB	.	8d)	.	8dd	.	.	.	.
8EJ)	.	8dJ	.	8eeJ)	.	8ggg#X)	.	V7/V
=21	=21	=21	=21	=21	=21	=21	=21	=21
!	!	!	!	!	!	!LO:TX:b:t=cresc.	!	!
(8AAL	.	4c#	.	4ee	.	8aaa'L	.	V
!LO:TX:b:t=cresc.	!	!	!	!	!	!	!	!
8A	.	.	.	.	.	8aa'	.	.
8G#XJ	.	8r	.	8r	.	8bbTJ	.	.
!	!	!LO:TX:b:t=cresc	!	!	!	!	!	!
8AL	.	[4.A	.	4r	.	8ccc#L	.	V43
8G	.	.	.	.	.	8ccc#	.	.
8EJ)	.	.	.	8r	.	8ccc#tJ	.	.
=22	=22	=22	=22	=22	=22	=22	=22	=22
(8F#L	.	8AL]	.	8r	.	8dddL	.	I6
!	!	!	!	!LO:TX:b:t=cresc.	!	!	!	!
8D	.	8a	.	(8ff#L	.	8ddd	.	I
8C#J	.	8aJ	.	8eeJ	.	8eeeTJ	.	V6
8DL	.	(8aL	.	8ff#L	.	8fff#L	.	I
8BB	.	8d	.	8dd)	.	8fff#	.	vi
8EJ)	.	8eJ)	.	8ddJ	.	8ggg#XtJ	.	V7/V
=23	=23	=23	=23	=23	=23	=23	=23	=23
8AA'L	f	4e	f	4cc#	f	8aaaL	f	V
8C#'	.	.	.	.	.	8aaa	.	.
8E'J	.	8r	.	8r	.	8cccc#J	.	.
8A'L	.	4e	.	4cc#	.	8aaaL	.	.
8c#'	.	.	.	.	.	8aaa	.	.
8e'J	.	8r	.	8r	.	8eeeeJ	.	.
=24	=24	=24	=24	=24	=24	=24	=24	=24
4a	.	4e	.	4cc#	.	4aaa	.	V\\
8r	.	8r	.	8r	.	8r	.	.
8r	.	8r	.	8r	.	8r	.	.
8r	.	8r	.	8r	.	8r	.	.
8E'	p	8e'	p	8e'	p	8e'	p	.
=25	=25	=25	=25	=25	=25	=25	=25	=25
4c'	.	4cc'	.	4cc'	.	4cc'	.	v.i
8G#X'	.	8g#X'	.	8g#X'	.	8g#X'	.	.
4A'	.	4a'	.	4a'	.	4a'	.	.
8E'	.	8e'	.	8e'	.	8e'	.	.
=26	=26	=26	=26	=26	=26	=26	=26	=26
!	!	!	!LO:DY:a	!	!LO:DY:a	!	!	!
(4F	sf	(4f	sf sf	(4f	sf	(4f	.	VI
16GLL	.	16gLL	.	16gLL	.	16gLL	.	.
16FJJ	.	16fJJ	.	16fJJ	.	16fJJ	.	.
4E')	.	4e')	.	4e')	.	4e')	.	V
16eLL	.	8r	.	8r	.	8e	.	.
16dJJ	.	.	.	.	.	.	.	.
=27	=27	=27	=27	=27	=27	=27	=27	=27
(4c	.	2.r	.	(4e	.	(4a	.	i6
8B	.	.	.	8g#X	.	8b	.	#viio6
4A	.	.	.	4a	.	4cc	.	i
8G#X)	.	.	.	8b)	.	8dd)	.	#viio
=28	=28	=28	=28	=28	=28	=28	=28	=28
(4A	.	2.r	.	(4b	.	(4dd	.	i(94)
8D#X	.	.	.	8a	.	8cc	.	#viio7/V
4E')	.	.	.	4g#X')	.	4b')	.	V\\
8r	.	.	.	8r	.	(8e	.	.
=29	=29	=29	=29	=29	=29	=29	=29	=29
(4A	.	[4.e	.	(4c	.	4cc	.	i
8B	.	.	.	8d	.	8g#X	.	V43
4c')	.	4e]	.	4e')	.	4a')	.	i6
(8c#X	.	8a	.	(8e	.	(8a	.	V6/iv
=30	=30	=30	=30	=30	=30	=30	=30	=30
4d	.	[4.a	.	4f	.	4ff	.	iv
8e	.	.	.	8g	.	8cc#	.	V43/iv
4f')	.	4a]	.	4a')	.	4dd')	.	iv6
8B'	.	8r	.	8ff'	.	8aa'	.	ii%7
=31	=31	=31	=31	=31	=31	=31	=31	=31
4c'	.	8r	.	(8ffL	.	(8aaL	.	.bVII.I(64)
.	.	8r	.	8ee)	.	8gg)	.	I
8F'	.	8a	.	8dd'J	.	8ff'J	.	ii6
.	.	.	.	.	.	8qgg/	.	V7
4G'	.	(8aL	.	(8ddL	.	(8ffL	.	.
.	.	8g)	.	8cc)	.	8ee)	.	V(64)
8GG'	.	8f'J	.	8b'J	.	8dd'J	.	V7
=32	=32	=32	=32	=32	=32	=32	=32	=32
4C	.	(4.f	.	(4.b	.	(4.dd	.	I(974)
8G	.	.	.	.	.	.	.	.
4c	.	8eL)	.	8ccL)	.	8cc)	.	I\\
.	.	8r	.	8r	.	8r	.	.
8E'	f	8e'J	f	8ee'J	f	8r	.	v.V
=33	=33	=33	=33	=33	=33	=33	=33	=33
4c'	.	4cc'	.	4ccc'	.	2.r	.	i
8G#X'	.	8g#X'	.	8gg#X'	.	.	.	.
4A'	.	4a'	.	4aa'	.	.	.	.
8E'	.	8e'	.	8ee'	.	.	.	.
=34	=34	=34	=34	=34	=34	=34	=34	=34
(4F	sf	(4f	sf	(4ff	sf	4r	.	VI
16GLL	.	16gLL	.	16ggLL	.	8r	.	.
16FJJ	.	16fJJ	.	16ffJJ	.	.	.	.
4E')	.	4e')	.	4ee')	.	8r	.	V
.	.	.	.	.	.	8r	.	.
8r	.	16eeLL	p	8ee	p	8ee	p	.
.	.	16ddJJ	.	.	.	.	.	.
=35	=35	=35	=35	=35	=35	=35	=35	=35
2.r	.	(4cc	.	(4ee	.	(4aa	.	i6
.	.	8b	.	8gg#X	.	8bb	.	#viio6
.	.	4a	.	4aa	.	4ccc	.	i
.	.	8g#X)	.	8bb)	.	8ddd)	.	#viio
=36	=36	=36	=36	=36	=36	=36	=36	=36
2.r	.	(4a	.	(4bb	.	(4ddd	.	i(94)
.	.	8d#X	.	8aa	.	8ccc	.	#viio7/V
.	.	4e')	.	4gg#X')	.	4bb')	.	V\\
.	.	8r	.	8r	.	(8ee	pp	.
*clefC4	*	*	*	*	*	*	*	*
=37	=37	=37	=37	=37	=37	=37	=37	=37
(4a	pp	[4.ee	pp	(4cc#	pp	4ccc#	.	V.I
8b	.	.	.	8dd	.	8gg#X	.	V43
4cc#')	.	4ee]	.	4ee')	.	4aa')	.	I6
(8cc#	<	(8ee	<	(8ee	<	(8aa	<	.
=38	=38	=38	=38	=38	=38	=38	=38	=38
4dd	.	[4.aa)	.	4ff#	.	4fff#	.	IV
8ee	[ >	.	.	8gg	[ >	8ccc#	[ >	V43/IV
4ff#')	.	4aa]	[	4aa')	.	4ddd')	.	IV6
8r	]	8r	.	8r	]	8r	]	.
=39	=39	=39	=39	=39	=39	=39	=39	=39
2.r	.	2.r	.	2.r	.	4r	.	.
.	.	.	.	.	.	8r	.	.
.	.	.	.	.	.	8r	.	.
.	.	.	.	.	.	8r	.	.
.	.	.	.	.	.	(8aa	pp	.
=40	=40	=40	=40	=40	=40	=40	=40	=40
2.r	.	4r	.	2.r	.	4fff#	.	IV
.	.	8r	.	.	.	8ccc#	.	.
.	.	8r	.	.	.	4ddd	.	.
.	.	8r	.	.	.	.	.	.
.	.	(8cc#	pp	.	.	8aa#X	.	.
=41	=41	=41	=41	=41	=41	=41	=41	=41
4r	.	4dd	.	8r	.	4bb)	.	ii6
.	.	.	.	8r	.	.	.	.
8r	.	8a#X	.	(8cc#	pp	[8ff#	.	V6/ii
4r	.	4b)	.	4dd)	.	4ff#]	.	ii
(8A	pp	([8b	.	([8dd	.	8ff	.	ii%2
=42	=42	=42	=42	=42	=42	=42	=42	=42
4G#X)	.	4b]	.	4dd]	.	([4.ee	.	V65
8A	.	8a	.	8cc#	.	.	.	.
4D	.	4f#	.	4b	.	8eeL]	.	I
.	.	.	.	.	.	8dd	.	ii6
8E	.	8d)	.	8g#X)	.	8b'J)	.	V7
=43	=43	=43	=43	=43	=43	=43	=43	=43
4AA	.	4c#	.	(4a	pp	4a	.	I\\
8r	.	8r	.	8b)	.	8r	.	.
4r	.	4r	.	8cc#'L	.	4r	.	.
.	.	.	.	8b'	.	.	.	.
8r	.	8r	.	8a'J	.	8r	.	.
=44	=44	=44	=44	=44	=44	=44	=44	=44
2.r	.	(4e	pp	4g#X'	.	4r	.	V
.	.	8f#)	.	8f#'	.	8r	.	.
.	.	8g'L	.	4e'	.	8r	.	V2/ii
.	.	8f#'	.	.	.	8aa#XL	pp	.
.	.	8e'J	.	8r	.	8aa#J	.	.
=45	=45	=45	=45	=45	=45	=45	=45	=45
2.r	.	4d'	.	(4b	.	4bb	.	ii6
.	.	8c#'	.	8cc#)	.	8r	.	.
.	.	4B'	.	8dd'L	.	4r	.	ii
.	.	.	.	8cc#'	.	.	.	.
.	.	8r	.	8b'J	.	8r	.	.
=46	=46	=46	=46	=46	=46	=46	=46	=46
2.r	.	(4f#	.	4a'	.	4r	.	V/iii
.	.	8g#X)	.	8g#X'	.	8r	.	.
.	.	8a'L	.	4f#'	.	8r	.	#viio6/iii
.	.	8g#'	.	.	.	8bb#XL	.	.
.	.	8f#'J	.	8r	.	8bb#J	.	.
=47	=47	=47	=47	=47	=47	=47	=47	=47
2.r	.	4e'	.	(4cc#	.	4ccc#	.	iii6
.	.	8d#X'	.	8dd#X)	.	8r	.	.
.	.	4c#'	.	8ee'L	.	4r	.	iii
.	.	.	.	8dd#'	.	.	.	.
.	.	8r	.	8cc#'J	.	8r	.	.
=48	=48	=48	=48	=48	=48	=48	=48	=48
(4E	f	4e	f	(8ddL	f	(4dd 4ddd	f	V7
.	.	.	.	8g#X)	.	.	.	.
8F#)	.	8e'	.	8a'J	.	8ccc#)	.	.
8G#X'L	.	8e'L	.	8b'L	.	8bb'L	.	.
8A'	.	8e'	.	8cc#'	.	8aa'	.	.
8B'J	.	8e'J	.	8dd'J	.	8gg#X'J	.	.
=49	=49	=49	=49	=49	=49	=49	=49	=49
(8c#L	p	(8eL	p	8ee'	p	(8gg#XL	p	I6(7)
8AJ)	.	8c#J)	.	(8eeL	.	8aa)	.	I
8r	.	8r	.	8cc#)	.	8ee'	.	.
(8dL	.	(8f#L	.	8r	.	8r	.	IV
8f#J)	.	8aJ)	.	(8ff#	.	(8aa	.	IV6
8r	.	8r	.	8ddJ)	.	8ff#J)	.	.
=50	=50	=50	=50	=50	=50	=50	=50	=50
(8EL	.	(8AL	.	8r	.	8r	.	V(64)
8AJ)	.	8c#J)	.	(8cc#L	.	(8eeL	.	.
8r	.	8r	.	8a)	.	8cc#)	.	.
(8EL	.	(8BL	.	8r	.	8r	.	.
8BJ)	.	8dJ)	.	(8b	.	(8dd	.	V7
8r	.	8r	.	8g#XJ)	.	8bJ)	.	.
=51	=51	=51	=51	=51	=51	=51	=51	=51
!	!	!	!	!	!LO:DY:a	!	!	!
4AA	f	4c#	f	8aL	f f	8aL	.	I\\
.	.	.	.	8a'	.	8aa'	.	.
8r	.	8r	.	8b'J	.	8bb'J	.	.
4r	.	4r	.	8cc#'L	.	8ccc#'L	.	.
.	.	.	.	8b'	.	8bb'	.	.
8r	.	8r	.	8a'J	.	8aa'J	.	.
=52	=52	=52	=52	=52	=52	=52	=52	=52
(4E	sf	(4e	sf	4g#X'	.	4gg#X'	.	V
8F#)	.	8f#)	.	8f#'	.	8ff#'	.	.
8G'L	.	8g'L	.	4e'	.	4ee'	.	V6
8F#'	.	8f#'	.	.	.	.	.	.
8E'J	.	8e'J	.	8r	.	8r	.	.
=53	=53	=53	=53	=53	=53	=53	=53	=53
4D'	.	4d'	.	(4b	sf	(4bb	sf	ii6
8C#'	.	8c#'	.	8cc#)	.	8ccc#)	.	.
4BB'	.	4B'	.	8dd'L	.	8ddd'L	.	ii
.	.	.	.	8cc#'	.	8ccc#'	.	.
8r	.	8r	.	8b'J	.	8bb'J	.	.
=54	=54	=54	=54	=54	=54	=54	=54	=54
(4F#	sf	(4f#	sf	4a'	.	4aa'	.	vi
8G#X)	.	8g#X)	.	8g#X'	.	8gg#X'	.	.
8A'L	.	8a'L	.	4f#'	.	4ff#'	.	vi6
8G#'	.	8g#'	.	.	.	.	.	.
8F#'J	.	8f#'J	.	8r	.	8r	.	.
=55	=55	=55	=55	=55	=55	=55	=55	=55
4E'	.	4e'	.	(4cc#	f	(4ccc#	f	iii6
8D#X'	.	8d#X'	.	8dd#X)	.	8ddd#X)	.	.
4C#'	.	4c#'	.	8ee'L	.	8eee'L	.	iii
.	.	.	.	8dd#'	.	8eee'	.	.
8r	.	8r	.	8cc#'J	.	8eee'J	.	.
=56	=56	=56	=56	=56	=56	=56	=56	=56
4E	sf	4b	sf	4dd	sf	2.eee	sf	V65
8F#'	.	8a'	.	8cc#'	.	.	.	.
8G#X'L	.	8g#X'L	.	8b'L	.	.	.	.
8A'	.	8f#'	.	8a'	.	.	.	.
8B'J	.	8e'J	.	8g#X'J	.	.	.	.
=57	=57	=57	=57	=57	=57	=57	=57	=57
4E	sf	4b	sf	4dd	sf	2.eee	sf	V65
8F#'	.	8a'	.	8cc#'	.	.	.	.
8G#X'L	.	8g#X'L	.	8b'L	.	.	.	.
8A'	.	8f#'	.	8a'	.	.	.	.
8B'J	.	8e'J	.	8g#X'J	.	.	.	.
=58	=58	=58	=58	=58	=58	=58	=58	=58
8BL	sf	8g#XL	sf	8ddL	sf	8eeeL	sf	V43
8B	.	8g#	.	8ddd	.	8eee	.	.
8AJ	.	8aJ	.	8ccc#J	.	8fff#J	.	.
8G#XL	.	8bL	.	8bbL	.	8ggg#XL	.	V65
8F#	.	8cc#	.	8aa	.	8aaa	.	.
8EJ	.	8ddJ	.	8gg#XJ	.	8bbbJ	.	V7
=59	=59	=59	=59	=59	=59	=59	=59	=59
4A	.	4e	.	8aa	.	4.cccc#	.	I
.	.	.	.	(8aL	.	.	.	.
8r	.	8r	.	8aa)	.	.	.	.
4F#	.	4a	.	8r	.	4.dddd	.	vi
.	.	.	.	(8a	.	.	.	.
8r	.	8r	.	8aaJ)	.	.	.	.
=60	=60	=60	=60	=60	=60	=60	=60	=60
4C#	.	4a	.	8r	.	4.eeee	.	I6
.	.	.	.	(8aL	.	.	.	.
8r	.	8r	.	8aa)	.	.	.	.
4D#X	.	4a	.	8r	.	4.ffff#	.	#viio/V
.	.	.	.	(8a	.	.	.	.
8r	.	8r	.	8aaJ)	.	.	.	.
=61	=61	=61	=61	=61	=61	=61	=61	=61
!	!	!	!	!	!LO:DY:a	!	!	!
(8EL	sf	[4.a	sf	[4.cc#	sf sf	[4.e	.	V(64)
8c#	.	.	.	.	.	.	.	.
8AJ)	.	.	.	.	.	.	.	.
8EL	.	8aL]	.	8cc#L]	.	8eL]	.	V7
8E	.	8b'	.	8dd'	.	8ddd'	.	.
8EJ	.	8b'J	.	8dd'J	.	8gg#X'J	.	.
=62	=62	=62	=62	=62	=62	=62	=62	=62
4A	.	4a	.	4cc#	.	(16aaLL	.	I\\
.	.	.	.	.	.	16ccc#)	.	.
.	.	.	.	.	.	16eee'	.	.
.	.	.	.	.	.	16ccc#'	.	.
8r	.	8r	.	8r	.	16aa'	.	.
.	.	.	.	.	.	16ccc#'JJ	.	.
4r	.	4r	.	4r	.	16ee'LL	.	.
.	.	.	.	.	.	16aa'	.	.
.	.	.	.	.	.	16cc#'	.	.
.	.	.	.	.	.	16ee'	.	.
8r	.	8r	.	8r	.	16a'	.	.
.	.	.	.	.	.	16cc#'JJ	.	.
=63	=63	=63	=63	=63	=63	=63	=63	=63
8eL	sf	[4.a	sf	[4.cc#	sf	[4.e	sf	V(64)
8c#	.	.	.	.	.	.	.	.
8AJ	.	.	.	.	.	.	.	.
8EL	.	8aL]	.	8cc#L]	.	8eL]	.	V7
8E	.	8b'	.	8dd'	.	8ddd'	.	.
8EJ	.	8b'J	.	8dd'J	.	8gg#X'J	.	.
=64	=64	=64	=64	=64	=64	=64	=64	=64
4A	.	4a	.	4cc#	.	(16aaLL	.	I
.	.	.	.	.	.	16ccc#)	.	.
.	.	.	.	.	.	16eee'	.	.
.	.	.	.	.	.	16ccc#'	.	.
8r	.	8r	.	8r	.	16aa'	.	.
.	.	.	.	.	.	16ccc#'JJ	.	.
4r	.	4r	.	4r	.	16ee'LL	.	.
.	.	.	.	.	.	16aa'	.	.
.	.	.	.	.	.	16cc#'	.	.
.	.	.	.	.	.	16ee'	.	.
8r	.	8r	.	8r	.	16a'	.	.
.	.	.	.	.	.	16cc#'JJ	.	.
=65	=65	=65	=65	=65	=65	=65	=65	=65
!	!	!	!	!	!LO:DY:a	!	!	!
(8eL	sf	[4.a	sf	[4.cc#	sf sf	[4.e	.	V(64)
8c#	.	.	.	.	.	.	.	.
8AJ)	.	.	.	.	.	.	.	.
8EL	.	8aL]	.	8cc#]	.	8eL]	.	V7
8E	.	8b'	.	8dd'	.	8ddd'	.	.
8EJ	.	8b'J	.	8dd'	.	8gg#X'J	.	.
=66	=66	=66	=66	=66	=66	=66	=66	=66
4A	.	4a	.	4cc#	.	4aa	.	I\\
8r	.	8r	.	8r	.	8r	.	.
4r	.	(4a'	p	4r	.	4r	.	.
8r	.	8a')	.	8r	.	8r	.	.
=67	=67	=67	=67	=67	=67	=67	=67	=67
!	!	!LO:TX:b:t=cresc.	!	!	!	!	!	!
2.r	.	(4a'	.	2.r	.	2.r	.	I
.	.	8a'	.	.	.	.	.	.
.	.	4a'	.	.	.	.	.	.
.	.	8a')	.	.	.	.	.	.
=68	=68	=68	=68	=68	=68	=68	=68	=68
[4.g	sfp	[4.a	sfp	[4.cc#	sfp	[4.bb	sfp	V2/IV
8gL]	.	8aL]	.	8cc#L]	.	8bbL]	.	.
8f#'	.	8a'	.	8dd'	.	8aa'	.	IV6
8c#'J	.	8a'J	.	8ee'J	.	8gg'J	.	V65/IV
=69	=69	=69	=69	=69	=69	=69	=69	=69
8d'L	.	8a'L	.	8ff#'L	.	8ff#'L	.	IV
8c#'	.	8f#'	.	8a#X'	.	8ee'	.	V43/ii
8B'J	.	8f#'J	.	8b'J	.	8dd'J	.	ii
8e'L	.	8e'L	.	8a'L	.	8cc#'L	.	V(64)
8e'	.	8e'	.	8b'	.	8dd'	.	V7
8E'J	.	8e'J	.	8g#X'J	.	8b'J	.	.
=70	=70	=70	=70	=70	=70	=70	=70	=70
4A	.	4e	.	4a	.	(8bL	.	I(9)
.	.	.	.	.	.	8cc#)	.	I\\
8r	.	8r	.	8r	.	8a'J	.	.
!LO:TX:b:t=cresc	!	!LO:TX:b:t=cresc.	!	!LO:TX:b:t=cresc.	!	!LO:TX:b:t=cresc.	!	!
(4A'	.	(4A'	.	(4a'	.	(4a'	.	.
8A')	.	8A')	.	8a')	.	8a')	.	.
=71	=71	=71	=71	=71	=71	=71	=71	=71
(4A'	.	(4A'	.	(4a'	.	(4a'	.	I
8A')	.	8A')	.	8a')	.	8a')	.	.
(4A'	.	(4A'	.	(4a'	.	(4a'	.	.
8A')	.	8A')	.	8a')	.	8a')	.	.
=72	=72	=72	=72	=72	=72	=72	=72	=72
[4.A#X	f	[4.cc#	f	[4.gg	f	[4.ggg	f	V65(2)/ii
8A#L]	.	8cc#L]	.	8ggL]	.	8gggL]	.	.
8A#'	.	8cc#'	.	8ff#'	.	8fff#'	.	V65/ii
8A#'J	.	8cc#'J	.	8ff#'J	.	8eee'J	.	.
=73	=73	=73	=73	=73	=73	=73	=73	=73
8B'L	.	8f#'L	.	8ff#'L	.	8ddd'L	.	ii
8c#'	.	8f#'	.	8ee'	.	8ccc#'	.	.
8d'J	.	8f#'J	.	8dd'J	.	8bb'J	.	ii6
8e'L	.	8e'L	.	(8cc#L	.	(8aaL	.	V(64)
8e'	.	8e'	.	8dd)	.	8bb)	.	V7
8E'J	.	8e'J	.	8dd'J	.	8gg#X'J	.	.
=74	=74	=74	=74	=74	=74	=74	=74	=74
4AA	p	8e	p	8cc#	p	(16aaLL	p	I\\
.	.	.	.	.	.	16ccc#)	.	.
.	.	(8AL	.	(8c#L	.	16eee'	.	.
.	.	.	.	.	.	16ccc#'	.	.
8r	.	8c#)	.	8e)	.	16eee'	.	.
.	.	.	.	.	.	16ccc#'JJ	.	.
4E	.	8r	.	8r	.	(16dddLL	.	V7
.	.	.	.	.	.	16bb)	.	.
.	.	(8B	.	(8d	.	16gg#X'	.	.
.	.	.	.	.	.	16ee'	.	.
8r	.	8dJ)	.	8eJ)	.	16dd'	.	.
.	.	.	.	.	.	16b'JJ	.	.
=75	=75	=75	=75	=75	=75	=75	=75	=75
4A	.	8r	.	8r	.	(16aLL	.	I
.	.	.	.	.	.	16cc#)	.	.
.	.	(8c#L	.	(8aL	.	16ee'	.	.
.	.	.	.	.	.	16aa'	.	.
8r	.	8e)	.	8cc#)	.	16ccc#'	.	.
.	.	.	.	.	.	16aa'JJ	.	.
4E	.	8r	.	8r	.	(16gg#XLL	.	V7
.	.	.	.	.	.	16bb)	.	.
.	.	(8d	.	(8b	.	16ddd'	.	.
.	.	.	.	.	.	16bb'	.	.
8r	.	8eJ)	.	8ddJ)	.	16ddd'	.	.
.	.	.	.	.	.	16bb'JJ	.	.
=76	=76	=76	=76	=76	=76	=76	=76	=76
4AA	.	8r	.	8r	.	(16aaLL	.	I
.	.	.	.	.	.	16ccc#)	.	.
.	.	(8AL	.	(8c#L	.	16eee'	.	.
.	.	.	.	.	.	16ccc#'	.	.
8r	.	8c#)	.	8e)	.	16eee'	.	.
.	.	.	.	.	.	16ccc#'JJ	.	.
4E	.	8r	.	8r	.	(16dddLL	.	V7
.	.	.	.	.	.	16bb)	.	.
.	.	(8B	.	(8d	.	16gg#X'	.	.
.	.	.	.	.	.	16ee'	.	.
8r	.	8dJ)	.	8eJ)	.	16dd'	.	.
.	.	.	.	.	.	16b'JJ	.	.
=77	=77	=77	=77	=77	=77	=77	=77	=77
4A	.	8r	.	8r	.	(16aLL	.	I
.	.	.	.	.	.	16cc#)	.	.
.	.	(8c#L	.	(8aL	.	16ee'	.	.
.	.	.	.	.	.	16aa'	.	.
8r	.	8e)	.	8cc#)	.	16ccc#'	.	.
.	.	.	.	.	.	16aa'JJ	.	.
4E	.	8r	.	8r	.	(16gg#XLL	.	V7
.	.	.	.	.	.	16bb)	.	.
.	.	(8d	.	(8b	.	16ddd'	.	.
.	.	.	.	.	.	16bb'	.	.
8r	.	8eJ)	.	8ddJ)	.	16ddd'	.	.
.	.	.	.	.	.	16bb'JJ	.	.
=78	=78	=78	=78	=78	=78	=78	=78	=78
4A	.	8r	.	8r	.	(16aaLL	.	I
.	.	.	.	.	.	16bb	.	.
.	.	(8c#L	.	(8aL	.	16ccc#	.	.
.	.	.	.	.	.	16ddd	.	.
8r	.	8e)	.	8cc#)	.	16eee	.	.
.	.	.	.	.	.	16ccc#JJ)	.	.
4A	.	8r	.	8r	.	(16aaLL	.	.
.	.	.	.	.	.	16bb	.	.
.	.	(8c#	.	(8a	.	16ccc#	.	.
.	.	.	.	.	.	16ddd	.	.
8r	.	8eJ)	.	8cc#J)	.	16eee	.	.
.	.	.	.	.	.	16ccc#JJ)	.	.
=79	=79	=79	=79	=79	=79	=79	=79	=79
(16ALL	.	4c#	.	4a	.	4aa	.	I\\
16B	.	.	.	.	.	.	.	.
16c#	.	.	.	.	.	.	.	.
16d	.	.	.	.	.	.	.	.
16e	.	8r	.	8r	.	8r	.	.
16c#JJ)	.	.	.	.	.	.	.	.
8A'L	.	4r	.	4r	.	4r	.	.
8G'	.	.	.	.	.	.	.	.
8E'J	.	8r	.	8r	.	8r	.	.
=80:|!	=80:|!	=80:|!	=80:|!	=80:|!	=80:|!	=80:|!	=80:|!	=80:|!
(16ALL	.	4c#	.	4a	.	4aa	.	I\\
16B	.	.	.	.	.	.	.	.
16c#	.	.	.	.	.	.	.	.
16d	.	.	.	.	.	.	.	.
16e	.	8r	.	8r	.	8r	.	.
16c#JJ)	.	.	.	.	.	.	.	.
8A'L	.	4r	.	4r	.	4r	.	.
8G#X'	.	.	.	.	.	.	.	.
8G'J	.	8r	.	8r	.	8r	.	.
=81	=81	=81	=81	=81	=81	=81	=81	=81
4F#	.	4r	.	4r	.	4r	.	vi
8r	.	8r	.	8r	.	8r	.	.
!	!	!LO:TX:b:t=cresc.	!	!LO:TX:b:t=cresc.	!	!LO:TX:b:t=cresc.	!	!
4r	.	(4F#'	.	(4f#'	.	(4f#'	.	.
8r	.	8F#')	.	8f#')	.	8f#')	.	.
=82!|:	=82!|:	=82!|:	=82!|:	=82!|:	=82!|:	=82!|:	=82!|:	=82!|:
!LO:TX:b:t=cresc.	!	!	!	!	!	!	!	!
(4F#'	.	(4F#'	.	(4f#'	.	(4f#'	.	.
8F#')	.	8F#')	.	8f#')	.	8f#')	.	.
(4F#'	.	(4F#'	.	(4f#'	.	(4f#'	.	.
8F#')	.	8F#')	.	8f#')	.	8f#')	.	.
=83	=83	=83	=83	=83	=83	=83	=83	=83
[4.A#X	f	[4.c#	f	[4.ee	f	[4.gg	f	#viio7/ii
8A#L]	.	8c#L]	.	8eeL]	.	8ggL]	.	.
8B'	.	8d'	.	8dd'	.	8ff#'	.	ii
8c#'J	.	8e'J	.	8cc#'J	.	8ee'J	.	#viio6/ii
=84	=84	=84	=84	=84	=84	=84	=84	=84
4d	.	4f#	.	4b	.	4dd	.	ii6
8r	.	8r	.	8r	.	8r	.	.
4r	.	4r	.	4r	.	4r	.	.
8r	.	8r	.	8r	.	8r	.	.
=85	=85	=85	=85	=85	=85	=85	=85	=85
[4.e	sf	[4.g	sf	[4.cc#	sf	[4.aa#X	sf	#viio43/ii
8eL]	.	8gL]	.	8cc#L]	.	8aa#L]	.	.
8d'	.	8f#'	.	8dd'	.	8bb'	.	ii6
8c#'J	.	8e'J	.	8ee'J	.	8ccc#'J	.	#viio6/ii
=86	=86	=86	=86	=86	=86	=86	=86	=86
4B	.	4d	.	4ff#	.	4ddd	.	ii
8r	.	8r	.	8r	.	8r	.	.
4r	.	4r	.	4r	.	4r	.	.
8r	.	8r	.	8r	.	8r	.	.
=87	=87	=87	=87	=87	=87	=87	=87	=87
[4.cc	sf	[4.ee-X	sf	[4.aa	sf	[4.fff#	sf	IV.viio43
8ccL]	.	8ee-L]	.	8aaL]	.	8fff#L]	.	.
8b'	.	8dd'	.	8bb'	.	8ggg'	.	I6
8a'J	.	8cc'J	.	8ccc'J	.	8aaa'J	.	viio6
=88	=88	=88	=88	=88	=88	=88	=88	=88
4g	.	4b	.	4ddd	.	4bbb	.	I
8r	.	8r	.	8r	.	8r	.	.
4r	.	4r	.	4r	.	4r	.	.
8r	.	8r	.	8r	.	8r	.	.
=89	=89	=89	=89	=89	=89	=89	=89	=89
[4.c	pp	[4.f#	pp	[4.dd	pp	[4.aa	pp	V2
8cL]	.	8f#L]	.	8ddL]	.	8aaL]	.	.
8B'	.	8g'	.	8dd'	.	8bb'	.	I6
8A'J	.	8a'J	.	8dd'J	.	8ccc'J	.	V43
=90	=90	=90	=90	=90	=90	=90	=90	=90
(8GL	.	(8bL	.	8dd	.	8ddd	.	I
8BJ)	.	8gJ)	.	(8ggL	.	(8bbL	.	I6
8r	.	8r	.	8dd)	.	8gg)	.	.
(8cL	.	(8eL	.	8r	.	8r	.	IV
8eJ)	.	8gJ)	.	(8ee	.	(8gg	.	IV6
8r	.	8r	.	8ccJ)	.	8eeJ)	.	.
=91	=91	=91	=91	=91	=91	=91	=91	=91
(8DL	.	(8GL	.	8r	.	8r	.	V(64)
8GJ)	.	8BJ)	.	(8bL	.	(8ddL	.	.
8r	.	8r	.	8g)	.	8b)	.	.
(8DL	.	(8AL	.	8r	.	8r	.	V7
8AJ)	.	8cJ)	.	(8a	.	(8cc	.	.
8r	.	8r	.	8f#J)	.	8aJ)	.	.
=92	=92	=92	=92	=92	=92	=92	=92	=92
(8GGL	.	([4.G	.	([2.g	.	4g	.	I\\
8D	.	.	.	.	.	.	.	.
8BBJ)	.	.	.	.	.	8r	.	I[I
([4.GG	.	8GL]	.	.	.	8r	.	.
.	.	8d	.	.	.	8gg'L	.	.
.	.	8BJ)	.	.	.	8aa'J	.	.
=93	=93	=93	=93	=93	=93	=93	=93	=93
8GGL]	.	([4.G	.	2.f 2.g_	.	8bbL	.	V7/IV
8F	.	.	.	.	.	8r	.	.
8DJ)	.	.	.	.	.	8cccJ	.	.
([4.GG	.	8GL]	.	.	.	8dddL	.	.
.	.	8f	.	.	.	8r	.	.
.	.	8dJ)	.	.	.	8ddd#XJ	.	.
=94	=94	=94	=94	=94	=94	=94	=94	=94
8GGL]	.	([4.G	.	2.e 2.g]	.	(4.eee	.	IV64
8E	.	.	.	.	.	.	.	.
8CJ)	.	.	.	.	.	.	.	.
([4.GG	.	8GL]	.	.	.	8cccL)	.	.
.	.	8e	.	.	.	8r	.	.
.	.	8cJ)	.	.	.	8bbJ	.	.
=95	=95	=95	=95	=95	=95	=95	=95	=95
8GGL]	.	([4.G	.	[2.f# [2.a	.	8aaL	.	V7
8D	.	.	.	.	.	8r	.	.
8CJ)	.	.	.	.	.	8bbJ	.	.
([4.GG	.	8GL]	.	.	.	8cccL	.	.
.	.	8d	.	.	.	8r	.	.
.	.	8cJ)	.	.	.	8ccc#XJ	.	.
=96	=96	=96	=96	=96	=96	=96	=96	=96
8GGL]	.	(8GL	.	4.f#]) 4.a]	.	(4.ddd	.	.
8D	.	8d	.	.	.	.	.	.
8CJ)	.	8cJ)	.	.	.	.	.	.
(8GGL	.	(8GL	.	([4.g	.	8bbL)	.	I
8D	.	8d	.	.	.	8gg'	.	.
8BBJ)	.	8BJ)	.	.	.	8aa'J	.	.
=97	=97	=97	=97	=97	=97	=97	=97	=97
(8GGL	.	([4.G	.	4.g]	.	8bb'L	.	V7/IV
8F	.	.	.	.	.	8bb'	.	.
8DJ)	.	.	.	.	.	8ccc'J	.	.
([4.GG	.	8GL]	.	4.f 4.g	.	8ddd'L	.	.
.	.	8f	.	.	.	8ddd'	.	.
.	.	8dJ)	.	.	.	8ddd#X'J	.	.
=98	=98	=98	=98	=98	=98	=98	=98	=98
8GGL]	.	([4.G	.	2.e 2.g	.	(4.eee	.	IV64
8E	.	.	.	.	.	.	.	.
8CJ)	.	.	.	.	.	.	.	.
([4.GG	.	8GL]	.	.	.	8cccL)	.	.
.	.	8e	.	.	.	8r	.	.
.	.	8cJ)	.	.	.	8bbJ	.	.
=99	=99	=99	=99	=99	=99	=99	=99	=99
8GGL]	.	(8GL	.	2.f#)	.	8aaL	.	V7
8D	.	8d	.	.	.	8r	.	.
8CJ)	.	8cJ)	.	.	.	8bbJ	.	.
(8GGL	.	(8GL	.	.	.	8cccL	.	.
8D	.	8d	.	.	.	8r	.	.
8CJ)	.	8cJ)	.	.	.	8dddJ	.	V2
=100	=100	=100	=100	=100	=100	=100	=100	=100
4GG	.	4B	.	4g	.	4gg	.	I6]
8r	.	8r	.	8r	.	8r	.	.
4r	.	(16gLL	p	4r	.	4r	.	.
.	.	16a	.	.	.	.	.	.
.	.	16b	.	.	.	.	.	.
.	.	16cc	.	.	.	.	.	.
8r	.	16dd	.	8r	.	8r	.	.
.	.	16bJJ)	.	.	.	.	.	.
=101	=101	=101	=101	=101	=101	=101	=101	=101
2.r	.	4cc	.	4r	.	8r	.	V2
.	.	.	.	.	.	8dddL	p	.
.	.	8r	.	8r	.	8dddJ	.	.
.	.	(16dLL	.	(16f#LL	p	4r	.	V7
.	.	16e	.	16g	.	.	.	.
.	.	16f#	.	16a	.	.	.	.
.	.	16g	.	16b	.	.	.	.
.	.	16a	.	16cc	.	8r	.	.
.	.	16f#JJ)	.	16aJJ)	.	.	.	.
=102	=102	=102	=102	=102	=102	=102	=102	=102
4r	.	4g	.	4b	.	8r	.	I
.	.	.	.	.	.	8gggL	.	.
8r	.	8r	.	8r	.	8gggJ	.	.
(16GLL	f	(16GLL	f	(16gLL	f	(16ggLL	f	.
16A	.	16A	.	16a	.	16aa	.	.
16B	.	16B	.	16b	.	16bb	.	.
16c	.	16c	.	16cc	.	16ccc	.	.
16d	.	16d	.	16dd	.	16ddd	.	.
16BJJ)	.	16BJJ)	.	16bJJ)	.	16bbJJ)	.	.
=103	=103	=103	=103	=103	=103	=103	=103	=103
4C	.	4c	.	4cc	.	8eeeL	.	IV
.	.	.	.	.	.	8cc'	.	.
8r	.	8r	.	8r	.	8cc'J	.	.
4D	.	4d	.	4dd	.	8fff#L	.	V
.	.	.	.	.	.	8dd'	.	.
8r	.	8r	.	8r	.	8dd'J	.	.
=104	=104	=104	=104	=104	=104	=104	=104	=104
4GG	.	4G	.	4g	.	8gggL	.	I\\
.	.	.	.	.	.	8g'	.	.
8r	.	8r	.	8r	.	8g'J	.	.
4r	.	4r	.	(16gLL	p	4r	.	.
.	.	.	.	16a	.	.	.	.
.	.	.	.	16b	.	.	.	.
.	.	.	.	16cc	.	.	.	.
8r	.	8r	.	16dd	.	8r	.	.
.	.	.	.	16bJJ)	.	.	.	.
=105	=105	=105	=105	=105	=105	=105	=105	=105
2.r	.	2.r	.	4cc	.	(16ddLL	p	V2
.	.	.	.	.	.	16ee	.	.
.	.	.	.	.	.	16ff#	.	.
.	.	.	.	.	.	16gg	.	.
.	.	.	.	8r	.	16aa	.	.
.	.	.	.	.	.	16ff#JJ)	.	.
.	.	.	.	(16dLL	.	4ccc	.	V7
.	.	.	.	16e	.	.	.	.
.	.	.	.	16f#	.	.	.	.
.	.	.	.	16g	.	.	.	.
.	.	.	.	16a	.	8r	.	.
.	.	.	.	16f#JJ)	.	.	.	.
=106	=106	=106	=106	=106	=106	=106	=106	=106
4r	.	2.r	.	4g	.	(16bbLL	.	I
.	.	.	.	.	.	16ggg	.	.
.	.	.	.	.	.	16fff#	.	.
.	.	.	.	.	.	16ggg	.	.
8r	.	.	.	8r	.	16ddd	.	.
.	.	.	.	.	.	16bbJJ)	.	.
(16GLL	p	.	.	4r	.	4gg	.	.
16A	.	.	.	.	.	.	.	.
16B	.	.	.	.	.	.	.	.
16c	.	.	.	.	.	.	.	.
16d	.	.	.	8r	.	8r	.	.
16BJJ)	.	.	.	.	.	.	.	.
=107	=107	=107	=107	=107	=107	=107	=107	=107
4c	.	(16dLL	p	2.r	.	2.r	.	V7
.	.	16e	.	.	.	.	.	.
.	.	16f#	.	.	.	.	.	.
.	.	16g	.	.	.	.	.	.
8r	.	16a	.	.	.	.	.	.
.	.	16f#JJ)	.	.	.	.	.	.
(16DLL	.	4cc	.	.	.	.	.	.
16E	.	.	.	.	.	.	.	.
16F#	.	.	.	.	.	.	.	.
16G	.	.	.	.	.	.	.	.
16A	.	8r	.	.	.	.	.	.
16F#JJ)	.	.	.	.	.	.	.	.
=108	=108	=108	=108	=108	=108	=108	=108	=108
4G	.	(16b-LL	.	2.r	.	4r	.	i\\
.	.	16dd	.	.	.	.	.	.
.	.	16b-	.	.	.	.	.	.
.	.	16g	.	.	.	.	.	.
8r	.	16d	.	.	.	8r	.	.
.	.	16B-JJ)	.	.	.	.	.	.
4r	.	4.G	.	.	.	(16gLL	.	.
.	.	.	.	.	.	16a	.	.
.	.	.	.	.	.	16b-	.	.
.	.	.	.	.	.	16cc	.	.
8r	.	.	.	.	.	16dd	.	.
.	.	.	.	.	.	16b-JJ)	.	.
=109	=109	=109	=109	=109	=109	=109	=109	=109
2.r	.	2.r	.	4r	.	8ee-X'L	.	iv.iv
.	.	.	.	.	.	8cc'	.	.
.	.	.	.	8r	.	8cc'J	.	.
.	.	.	.	8d'L	p	8ff#'L	.	V
.	.	.	.	8f#'	.	8dd'	.	V6
.	.	.	.	8f#'J	.	8dd'J	.	.
=110	=110	=110	=110	=110	=110	=110	=110	=110
2.r	.	2.r	.	8e'L	.	8gg'L	.	vi
.	.	.	.	8g'	.	8ee'	.	.
.	.	.	.	8g'J	.	8ee'J	.	.
.	.	.	.	8f#'L	.	8aa'L	.	V6
.	.	.	.	8a'	.	8ff#'	.	V64
.	.	.	.	8a'J	.	8ff#'J	.	.
=111	=111	=111	=111	=111	=111	=111	=111	=111
2.r	.	2.r	.	8g'L	.	8bb-'L	.	i
.	.	.	.	8b-'	.	8gg'	.	i6
.	.	.	.	8b-'J	.	8gg'J	.	.
.	.	.	.	8a'L	.	8ccc'L	.	V43
.	.	.	.	8cc'	.	8aa'	.	V2
.	.	.	.	8cc'J	.	8aa'J	.	.
=112	=112	=112	=112	=112	=112	=112	=112	=112
!LO:TX:b:t=cresc.	!	!	!	!	!	!LO:TX:b:t=cresc.	!	!
(4.G	.	8r	.	8r	.	8ddd'L	.	i
!	!	!LO:TX:b:t=cresc.	!	!LO:TX:b:t=cresc.	!	!	!	!
.	.	8gL	.	8b-L	.	8gg'	.	.
.	.	8g	.	8b-	.	8gg'J	.	.
4.F	.	8r	.	8r	.	8bbb-L	.	i2
.	.	8g	.	8b-	.	8gg	.	.
.	.	8gJ	.	8b-J	.	8ggJ	.	.
=113	=113	=113	=113	=113	=113	=113	=113	=113
4.E-X	.	8r	.	8r	.	8bbb-L	.	VI
.	.	8gL	.	8b-L	.	8gg	.	.
.	.	8g	.	8b-	.	8ggJ	.	.
4.D	.	8r	.	8r	.	8bbb-L	.	i64
.	.	8g	.	8b-	.	8gg	.	.
.	.	8gJ	.	8b-J	.	8ggJ	.	.
=114	=114	=114	=114	=114	=114	=114	=114	=114
4C#)	.	4g	.	4b-	.	(16bbb-LL	sf	#viio7/V
.	.	.	.	.	.	16aaa)	.	.
.	.	.	.	.	.	16ggg'	.	.
.	.	.	.	.	.	16fff'	.	.
8r	.	8r	.	8r	.	16eee'	.	.
.	.	.	.	.	.	16ggg'JJ	.	.
4r	.	4r	.	(16bb-LL	sf	4ccc#	.	.
.	.	.	.	16aa)	.	.	.	.
.	.	.	.	16gg'	.	.	.	.
.	.	.	.	16ff'	.	.	.	.
8r	.	8r	.	16ee'	.	8r	.	.
.	.	.	.	16gg'JJ	.	.	.	.
=115	=115	=115	=115	=115	=115	=115	=115	=115
4r	.	(16b-LL	sf	4cc#	.	2.r	.	.
.	.	16a)	.	.	.	.	.	.
.	.	16g'	.	.	.	.	.	.
.	.	16f'	.	.	.	.	.	.
8r	.	16e'	.	8r	.	.	.	.
.	.	16g'JJ	.	.	.	.	.	.
(16ALL	sf	4c#	.	4r	.	.	.	.
16B-	.	.	.	.	.	.	.	.
16A	.	.	.	.	.	.	.	.
16G	.	.	.	.	.	.	.	.
16F	.	8r	.	8r	.	.	.	.
16EJJ)	.	.	.	.	.	.	.	.
=116	=116	=116	=116	=116	=116	=116	=116	=116
!LO:TX:b:t=cresc.	!	!	!	!	!	!LO:TX:b:t=cresc.	!	!
(4.D	.	8r	.	8r	.	8dddL	.	i.i
!	!	!LO:TX:b:t=cresc.	!	!LO:TX:b:t=cresc.	!	!	!	!
.	.	8dL	.	8fL	.	8dd	.	.
.	.	8d	.	8f	.	8ddJ	.	.
4.C	.	8r	.	8r	.	8fffL	.	i2
.	.	8d	.	8f	.	8dd	.	.
.	.	8dJ	.	8fJ	.	8ddJ	.	.
=117	=117	=117	=117	=117	=117	=117	=117	=117
4.BB-	.	8r	.	8r	.	8fffL	.	VI
.	.	8dL	.	8fL	.	8dd	.	.
.	.	8d	.	8f	.	8ddJ	.	.
4.AA	.	8r	.	8r	.	8fffL	.	i64
.	.	8d	.	8f	.	8dd	.	.
.	.	8dJ	.	8fJ	.	8ddJ	.	.
=118	=118	=118	=118	=118	=118	=118	=118	=118
4GG#X)	f	[2.d	f	[2.f	f	8fff'L	f	#viio7/V
.	.	.	.	.	.	(8d	.	.
8r	.	.	.	.	.	8fJ	.	.
4r	.	.	.	.	.	8bL	.	.
.	.	.	.	.	.	8dd	.	.
8r	.	.	.	.	.	8ffJ	.	.
=119	=119	=119	=119	=119	=119	=119	=119	=119
8r	.	8dL]	.	8fL]	.	8bbL	.	.
8G#XL	.	8b	.	(8ff	.	8ddd	.	.
8G#J	.	8bJ	.	8eeJ	.	8eeeJ	.	.
8G#L	.	8bL	.	8ddL	.	8fffL	.	.
8G#	.	8b	.	8ee	.	8eee	.	.
8G#J	.	8bJ	.	8ffJ)	.	8dddJ)	.	.
=120	=120	=120	=120	=120	=120	=120	=120	=120
4A	.	4cc#	.	4ee	.	8ccc#'L	.	V
.	.	.	.	.	.	8aa'	.	.
8r	.	8r	.	8r	.	8aa'J	.	.
(4.g	p	4r	.	(4.ee	p	8aaaL	p	V2
.	.	.	.	.	.	8aa	.	.
.	.	8r	.	.	.	8aaJ	.	.
=121	=121	=121	=121	=121	=121	=121	=121	=121
4.f	.	2.r	.	4.dd	.	8aaaL	.	i6
.	.	.	.	.	.	8aa	.	.
.	.	.	.	.	.	8aaJ	.	.
4.e	.	.	.	4.cc#)	.	8aaaL	.	V64
.	.	.	.	.	.	8aa	.	.
.	.	.	.	.	.	8aaJ	.	.
=122	=122	=122	=122	=122	=122	=122	=122	=122
4f')	.	4r	.	8ddL	.	4aaa	.	i6
.	.	.	.	8a'	.	.	.	.
8r	.	8r	.	8a'J	.	8r	.	.
(4.F	.	[4.A	p	8aaL	.	(4.ddd	p	.
.	.	.	.	8a	.	.	.	.
.	.	.	.	8aJ	.	.	.	.
=123	=123	=123	=123	=123	=123	=123	=123	=123
4.E	.	4.A_	.	8ggL	.	4.ccc#	.	V43
.	.	.	.	8a	.	.	.	.
.	.	.	.	8aJ	.	.	.	.
4.D	.	(8AL]	.	8ffL	.	4.ddd)	.	i
.	.	8d	.	8a	.	.	.	.
.	.	8fJ)	.	8aJ	.	.	.	.
=124	=124	=124	=124	=124	=124	=124	=124	=124
4AA')	.	4a'	.	4cc#'	.	8eee'L	.	V
.	.	.	.	.	.	8aa'	.	.
8r	.	8r	.	8r	.	8aa'J	.	.
(4.g	.	4r	.	(4.ee	.	8aaaL	.	V2
.	.	.	.	.	.	8aa	.	.
.	.	8r	.	.	.	8aaJ	.	.
=125	=125	=125	=125	=125	=125	=125	=125	=125
4.f	.	2.r	.	4.dd	.	8aaaL	.	i6
.	.	.	.	.	.	8aa	.	.
.	.	.	.	.	.	8aaJ	.	.
4.e	.	.	.	4.cc#)	.	8aaaL	.	V64
.	.	.	.	.	.	8aa	.	.
.	.	.	.	.	.	8aaJ	.	.
=126	=126	=126	=126	=126	=126	=126	=126	=126
4f')	.	4r	.	8ddL	.	4aaa	.	i6
.	.	.	.	8a'	.	.	.	.
8r	.	8r	.	8a'J	.	8r	.	.
(4.F	.	[4.A	.	8aaL	.	(4.ddd	.	.
.	.	.	.	8a	.	.	.	.
.	.	.	.	8aJ	.	.	.	.
=127	=127	=127	=127	=127	=127	=127	=127	=127
4.E	.	4.A_	.	8ggL	.	4.ccc#	.	V43
.	.	.	.	8a	.	.	.	.
.	.	.	.	8aJ	.	.	.	.
4.D	.	(8AL]	.	8ffL	.	4.ddd)	.	i
.	.	8d	.	8a	.	.	.	.
.	.	8fJ)	.	8aJ	.	.	.	.
=128	=128	=128	=128	=128	=128	=128	=128	=128
4AA')	.	4a	.	4cc#	.	4eee	.	V\\
8r	.	8r	.	8r	.	8r	.	.
(4A'	pp	4r	.	4r	.	4r	.	.
8A')	.	8r	.	8r	.	8r	.	.
=129	=129	=129	=129	=129	=129	=129	=129	=129
(4A	.	2.r	.	4r	.	4r	.	.
8G	.	.	.	8r	.	8r	.	.
4F#	.	.	.	(4a	pp	(4bb'	pp	I.V43/ii
8E)	.	.	.	8g)	.	8bb')	.	ii
=130	=130	=130	=130	=130	=130	=130	=130	=130
[4.D#X	.	[2.B	pp	[4.f#	.	(4bb	.	V65/ii
.	.	.	.	.	.	8aa	.	.
4D#]	.	.	.	4f#]	.	4gg	.	.
(24D#LL	.	.	.	(24f#LL	.	8ff#)	.	.
24E	.	.	.	24g	.	.	.	.
24F#JJ)	.	.	.	24aJJ)	.	.	.	.
=131	=131	=131	=131	=131	=131	=131	=131	=131
(4G	.	(4.B]	.	(4b	.	[4.ee	.	ii6
8F#	.	.	.	8a	.	.	.	.
4E	.	[4.e)	.	4g	.	4ee]	.	ii
8D)	.	.	.	8f#)	.	(24eeLL	.	.
.	.	.	.	.	.	24ff#	.	.
.	.	.	.	.	.	24ggJJ)	.	.
=132	=132	=132	=132	=132	=132	=132	=132	=132
[4.C#	.	4.e]	.	[4.e	.	(4aa	.	V65
.	.	.	.	.	.	8gg	.	.
4C#]	.	[4.A	.	4e]	.	4ff#	.	.
(24AALL	.	.	.	(24c#LL	.	8ee)	.	.
24BB	.	.	.	24d	.	.	.	.
24C#JJ)	.	.	.	24eJJ)	.	.	.	.
=133	=133	=133	=133	=133	=133	=133	=133	=133
!LO:TX:b:t=cresc.	!	!LO:TX:b:t=cresc.	!	!LO:TX:b:t=cresc.	!	!LO:TX:b:t=cresc.	!	!
[4.D	.	4.A]	.	[4.f#	.	(4gg	.	I
.	.	.	.	.	.	8ff#	.	.
4D]	.	[4.d	.	4f#]	.	4ee	.	.
(24DLL	.	.	.	(24f#LL	.	8dd	.	.
24E	.	.	.	24g	.	.	.	.
24F#JJ)	.	.	.	24aJJ)	.	.	.	.
=134	=134	=134	=134	=134	=134	=134	=134	=134
[4.G	.	4.d]	.	(4a	.	4cc#	.	IV(94)
.	.	.	.	8g	.	8b	.	IV
4G]	.	4.d	.	4f#	.	4a	.	.
(24GLL	.	.	.	8e)	.	8g)	.	.
24A	.	.	.	.	.	.	.	.
24BJJ)	.	.	.	.	.	.	.	.
=135	=135	=135	=135	=135	=135	=135	=135	=135
!	!	!	!	!	!LO:DY:a	!	!	!
2.A	f	2.d	f	2.f#	f f	16f#LL	.	V(64)
.	.	.	.	.	.	16a	.	.
.	.	.	.	.	.	16dd	.	.
.	.	.	.	.	.	16ff#	.	.
.	.	.	.	.	.	16aa	.	.
.	.	.	.	.	.	16dddJJ	.	.
.	.	.	.	.	.	16fff#LL	.	.
.	.	.	.	.	.	16ddd	.	.
.	.	.	.	.	.	16aaa	.	.
.	.	.	.	.	.	16fff#	.	.
.	.	.	.	.	.	16eee	.	.
.	.	.	.	.	.	16dddJJ	.	.
=136	=136	=136	=136	=136	=136	=136	=136	=136
[4.AA	sf	[4.e	sf	[4.g	sf	(16ccc#LL	.	V7
.	.	.	.	.	.	16ddd)	.	.
.	.	.	.	.	.	16eee'	.	.
.	.	.	.	.	.	16ddd'	.	.
.	.	.	.	.	.	16ccc#'	.	.
.	.	.	.	.	.	16bb'JJ	.	.
8AAL]	.	8eL]	.	8gL]	.	(16aaLL	.	.
.	.	.	.	.	.	16gg#X)	.	.
8AA'	.	8g'	.	8cc#'	.	16aa'	.	.
.	.	.	.	.	.	16gg'	.	.
8AA'J	.	8g'J	.	8cc#'J	.	16ff#'	.	.
.	.	.	.	.	.	16ee'JJ	.	.
=137	=137	=137	=137	=137	=137	=137	=137	=137
8D'L	.	4f#	.	4dd	.	4dd 4ddd	.	I\\
8F#'	.	.	.	.	.	.	.	.
8A'J	.	8r	.	8r	.	8r	.	.
.	.	.	.	.	.	16qqee'/LL	sfp	.
.	.	.	.	.	.	16qqdd'/	.	.
.	.	.	.	.	.	16qqcc#'/JJ	.	.
4d	sf	4f#	sf	4a	sf	8dd'L	.	.
.	.	.	.	.	.	8ee'	.	.
8r	.	8r	.	8r	.	8ff#'J	.	.
=138	=138	=138	=138	=138	=138	=138	=138	=138
8D'L	.	4r	.	4r	.	4r	.	I
8F#'	.	.	.	.	.	.	.	.
8A'J	.	8r	.	8r	.	8r	.	.
.	.	.	.	.	.	16qqgg/LL	sfp	.
.	.	.	.	.	.	16qqff#/	.	.
.	.	.	.	.	.	16qqee/JJ	.	.
4d	sf	4f#	sf	4a	sf	8ff#'L	.	.
.	.	.	.	.	.	8gg'	.	.
8r	.	8r	.	8r	.	8aa'J	.	.
=139	=139	=139	=139	=139	=139	=139	=139	=139
8D'L	.	4r	.	4r	.	4r	.	.
8F#'	.	.	.	.	.	.	.	.
8A'J	.	8r	.	8r	.	8r	.	.
.	.	.	.	.	.	16qqbb'/LL	sfp	.
.	.	.	.	.	.	16qqaa'/	.	.
.	.	.	.	.	.	16qqgg#X'/JJ	.	.
4d	sf	4f#	sf	4a	sf	8aa'L	.	.
.	.	.	.	.	.	8bb'	.	.
8r	.	8r	.	8r	.	8ccc#'J	.	.
=140	=140	=140	=140	=140	=140	=140	=140	=140
2.r	.	2.r	.	2.r	.	8ddd'L	.	.
.	.	.	.	.	.	8eee'	.	.
.	.	.	.	.	.	8fff#'J	.	.
.	.	.	.	.	.	8fff#'L	.	.
.	.	.	.	.	.	8ggg'	.	.
.	.	.	.	.	.	8aaa'J	.	.
=141	=141	=141	=141	=141	=141	=141	=141	=141
(8DL	p	(2.g	p	(2.b	p	(4.bbb	p	I[IV
8G	.	.	.	.	.	.	.	.
8BJ)	.	.	.	.	.	.	.	.
([4.D	.	.	.	.	.	8gggL)	.	.
.	.	.	.	.	.	8r	.	.
.	.	.	.	.	.	8fff#J	.	.
=142	=142	=142	=142	=142	=142	=142	=142	=142
8DL]	.	[2.e)	.	[2.cc#)	.	8eeeL	.	V2
8G	.	.	.	.	.	8r	.	.
8AJ)	.	.	.	.	.	8fff#J	.	.
([4.D	.	.	.	.	.	8gggL	.	.
.	.	.	.	.	.	8r	.	.
.	.	.	.	.	.	8ggg#XJ	.	.
=143	=143	=143	=143	=143	=143	=143	=143	=143
8DL]	.	(4.e]	.	(4.cc#]	.	(4.aaa	.	.
8G	.	.	.	.	.	.	.	.
8AJ)	.	.	.	.	.	.	.	.
(8DL	.	[4.f#)	.	[4.dd	.	8fff#L)	.	I6
8F#	.	.	.	.	.	8ddd'	.	.
8AJ)	.	.	.	.	.	8eee'J	.	.
=144	=144	=144	=144	=144	=144	=144	=144	=144
(8DL	.	4.f#]	.	4.dd]	.	8fff#'L	.	.
8F#	.	.	.	.	.	8fff#'	.	.
8AJ)	.	.	.	.	.	8ggg'J	.	.
(8DL	.	4.f#	.	4.cc)	.	8aaa'L	.	viio6/IV
8A	.	.	.	.	.	8aaa'	.	.
8cJ)	.	.	.	.	.	8aaa#X'J	.	.
=145	=145	=145	=145	=145	=145	=145	=145	=145
(8DL	.	(2.g	.	(2.b	.	(4.bbb	.	IV
8G	.	.	.	.	.	.	.	.
8BJ)	.	.	.	.	.	.	.	.
([4.D	.	.	.	.	.	4ggg)	.	.
.	.	.	.	.	.	8fff#	.	.
=146	=146	=146	=146	=146	=146	=146	=146	=146
8DL]	.	(2.e)	.	2.cc#	.	8eeeL	.	V2
8G	.	.	.	.	.	8r	.	.
8AJ)	.	.	.	.	.	8fff#J	.	.
8DL	.	.	.	.	.	8gggL	.	viio6
8E	.	.	.	.	.	8r	.	.
8GJ	.	.	.	.	.	8aaaJ	.	.
=147	=147	=147	=147	=147	=147	=147	=147	=147
4D	.	4f#)	.	4dd)	.	4ddd	.	I6]
8r	.	8r	.	8r	.	8r	.	.
4.r	.	4r	.	4r	.	(16ddLL	p	.
.	.	.	.	.	.	16ee	.	.
.	.	.	.	.	.	16ff#	.	.
.	.	.	.	.	.	16gg	.	.
.	.	8r	.	8r	.	16aa	.	.
.	.	.	.	.	.	16ff#JJ)	.	.
=148	=148	=148	=148	=148	=148	=148	=148	=148
8r	.	8r	.	8r	.	4gg'	.	V7
8A'L	p	8A'L	p	8a'L	p	.	.	.
8A'J	.	8A'J	.	8a'J	.	8r	.	.
4r	.	4r	.	4r	.	(16aaLL	.	.
.	.	.	.	.	.	16bb	.	.
.	.	.	.	.	.	16ccc#	.	.
.	.	.	.	.	.	16ddd	.	.
8r	.	8r	.	8r	.	16eee	.	.
.	.	.	.	.	.	16ccc#JJ)	.	.
=149	=149	=149	=149	=149	=149	=149	=149	=149
8r	.	8r	.	8r	.	4ddd'	.	I6
8F#'L	.	8F#'L	.	8f#'L	.	.	.	.
8F#'J	.	8F#'J	.	8f#'J	.	8r	.	.
4r	.	4r	.	4r	.	(16ddLL	.	.
.	.	.	.	.	.	16ee	.	.
.	.	.	.	.	.	16ff#	.	.
.	.	.	.	.	.	16gg	.	.
8r	.	8r	.	8r	.	16aa	.	.
.	.	.	.	.	.	16ff#JJ)	.	.
=150	=150	=150	=150	=150	=150	=150	=150	=150
8r	.	2.r	.	8r	.	8bbL	.	IV
8GL	.	.	.	8gL	.	8g	.	.
8G	.	.	.	8g	.	8gJ	.	.
8r	.	.	.	8r	.	8ccc#L	.	V
8A	.	.	.	8a	.	8a	.	.
8AJ	.	.	.	8aJ	.	8aJ	.	.
=151	=151	=151	=151	=151	=151	=151	=151	=151
8r	.	2.r	.	8r	.	8dddL	.	I\\
8DL	.	.	.	8dL	.	8d	.	.
8DJ	.	.	.	8dJ	.	8dJ	.	.
4r	.	.	.	4r	.	(16ddLL	.	.
.	.	.	.	.	.	16ee	.	.
.	.	.	.	.	.	16ff#	.	.
.	.	.	.	.	.	16gg	.	.
8r	.	.	.	8r	.	16aa	.	.
.	.	.	.	.	.	16ff#JJ)	.	.
=152	=152	=152	=152	=152	=152	=152	=152	=152
!LO:TX:b:t=cresc.	!	!	!	!	!	!LO:TX:b:t=cresc.	!	!
4BB	.	8r	.	8r	.	4gg	.	IV6
!	!	!LO:TX:b:t=cresc.	!	!LO:TX:b:t=cresc.	!	!	!	!
.	.	8BL	.	8bL	.	.	.	.
8r	.	8B	.	8b	.	8r	.	.
4C	.	8r	.	8r	.	4ggg	.	.bVII
.	.	8c	.	8cc	.	.	.	.
8r	.	8cJ	.	8ccJ	.	8r	.	.
=153	=153	=153	=153	=153	=153	=153	=153	=153
4C#	.	8r	.	8r	.	4ggg	.	viio
.	.	8c#L	.	8cc#L	.	.	.	.
8r	.	8c#	.	8cc#	.	8r	.	.
4D	.	8r	.	8r	.	4ggg	.	IV64
.	.	8d	.	8dd	.	.	.	.
8r	.	8dJ	.	8ddJ	.	8r	.	.
=154	=154	=154	=154	=154	=154	=154	=154	=154
4E-X	.	8r	.	8r	.	4ggg	.	.bII
.	.	8e-XL	.	8ee-XL	.	.	.	.
8r	.	8e-	.	8ee-	.	8r	.	.
4E	.	8r	.	8r	.	4ggg	.	V6/bIII
.	.	8e	.	8ee	.	.	.	.
8r	.	8eJ	.	8eeJ	.	8r	.	.
=155	=155	=155	=155	=155	=155	=155	=155	=155
4C	f	8r	.	8r	.	8r	.	V65/bIII
!	!	!	!	!	!LO:DY:a	!	!	!
.	.	8eL	f	8gL	f f	8ccL 8bb-	.	.
8r	.	8e	.	8g	.	8cc 8bb-	.	.
4F	.	8r	.	8r	.	8r	.	.bIII
.	.	8f	.	8a	.	8cc 8aa	.	.
8r	.	8fJ	.	8aJ	.	8ccJ 8aa	.	.
=156	=156	=156	=156	=156	=156	=156	=156	=156
4E	p	8r	.	8r	.	4aaa	p	V64
.	.	8eL	p	8eeL	p	.	.	.
8r	.	8e	.	8ee	.	8r	.	.
4F	.	8r	.	8r	.	4aaa	.	.bIII
.	.	8f	.	8ff	.	.	.	.
8r	.	8fJ	.	8ffJ	.	8r	.	.
=157	=157	=157	=157	=157	=157	=157	=157	=157
4D	f	8r	.	8r	.	8r	.	V7/IV
.	.	8f#L	f	8aL	f	8ddL 8ccc	f	.
8r	.	8f#	.	8a	.	8dd 8ccc	.	.
4G	.	8r	.	8r	.	8r	.	iv
.	.	8g	.	8b-	.	8dd 8bb-	.	.
8r	.	8gJ	.	8b-J	.	8ddJ 8bb-	.	.
=158	=158	=158	=158	=158	=158	=158	=158	=158
4G#X	p	8r	.	8r	.	8ddd	p	#viio7/V
.	.	8dL	p	8fL	p	8ffL	.	.
8r	.	8d	.	8f	.	8ff	.	.
4A	.	8r	.	8r	.	8r	.	i64
.	.	8d	.	8f	.	8ff	.	.
8r	.	8dJ	.	8fJ	.	8ffJ	.	.
=159	=159	=159	=159	=159	=159	=159	=159	=159
4B-	.	8r	.	8r	.	8r	.	.bVI
.	.	8dL	.	8fL	.	8ffL	.	.
8r	.	8d	.	8f	.	8ff	.	.
4G#X	.	8r	.	8r	.	8r	.	#viio7/V
.	.	8d	.	8f	.	8ff	.	.
8r	.	8dJ	.	8fJ	.	8ffJ	.	.
=160	=160	=160	=160	=160	=160	=160	=160	=160
8AAL	.	8c#L	.	4e	.	(16eeLL	.	V
.	.	.	.	.	.	16a	.	.
8A	.	8A	.	.	.	16cc#	.	.
.	.	.	.	.	.	16ee	.	.
8AJ	.	8AJ	.	8r	.	16aa	.	.
.	.	.	.	.	.	16ccc#JJ)	.	.
(8GL	.	[4.A	.	4r	.	(4eee	.	V2
8E	.	.	.	.	.	.	.	.
8GJ	.	.	.	8r	.	8ccc#	.	.
=161	=161	=161	=161	=161	=161	=161	=161	=161
8F#L	.	4.A_	.	8r	.	4ddd	.	I6
8D	.	.	.	(8ff#L	.	.	.	.
8C#J	.	.	.	8eeJ	.	8eee	.	.
8DL	.	(8AL]	.	8ff#L	.	4fff#	.	I
8BB	.	8d)	.	8dd	.	.	.	.
8EJ)	.	8dJ	.	8eeJ)	.	8ggg#X)	.	V7/V
=162	=162	=162	=162	=162	=162	=162	=162	=162
!	!	!	!	!	!	!LO:TX:b:t=cresc.	!	!
(8AAL	.	4c#	.	4ee	.	8aaa'L	.	V
8A	.	.	.	.	.	8aa'	.	.
8G#XJ	.	8r	.	8r	.	8bbTJ	.	.
8AL	.	[4.A	.	4r	.	8ccc#L	.	V2
8G	.	.	.	.	.	8ccc#	.	V43
8EJ)	.	.	.	8r	.	8ccc#tJ	.	.
=163	=163	=163	=163	=163	=163	=163	=163	=163
!LO:TX:b:t=cresc.	!	!LO:TX:b:t=cresc.	!	!	!	!	!	!
(8F#L	.	4.A_	.	8r	.	8dddL	.	I6
!	!	!	!	!LO:TX:b:t=cresc.	!	!	!	!
8D	.	.	.	(8ff#L	.	8ddd	.	.
8C#J	.	.	.	8eeJ	.	8eeeTJ	.	.
8DL	.	(8AL]	.	8ff#L	.	8fff#L	.	I
8BB	.	8d	.	8dd)	.	8fff#	.	.
8EJ)	.	8eJ)	.	8ddJ	.	8ggg#XtJ	.	V7/V
=164	=164	=164	=164	=164	=164	=164	=164	=164
8AA'L	f	4e	f	4cc#	f	8aaaL	f	V
8C#'	.	.	.	.	.	8aaa	.	.
8E'J	.	8r	.	8r	.	8cccc#J	.	.
8A'L	.	4e	.	4cc#	.	8aaaL	.	.
8c#'	.	.	.	.	.	8aaa	.	.
8e'J	.	8r	.	8r	.	8eeeeJ	.	.
=165	=165	=165	=165	=165	=165	=165	=165	=165
4a	.	4e	.	4cc#	.	4aaa	.	V\\
8r	.	8r	.	8r	.	8r	.	.
8r	.	8r	.	4r	.	8r	.	.
8r	.	8r	.	.	.	8r	.	.
8A'	p	8A'	p	8a'	p	8a'	p	i.V
=166	=166	=166	=166	=166	=166	=166	=166	=166
4f'	.	4f'	.	4ff'	.	4ff'	.	i6
8c#'	.	8c#'	.	8cc#'	.	8cc#'	.	.
4d'	.	4d'	.	4dd'	.	4dd'	.	i
8A'	.	8A'	.	8a'	.	8a'	.	.
=167	=167	=167	=167	=167	=167	=167	=167	=167
(4B-	sf	(4B-	sf	(4b-	sf	(4b-	sf	VI
16cLL	.	16cLL	.	16ccLL	.	16ccLL	.	.
16B-JJ	.	16B-JJ	.	16b-JJ	.	16b-JJ	.	.
4A')	.	4A')	.	4a')	.	4a')	.	V
(16aLL	.	8r	.	8r	.	8a	.	.
16gJJ)	.	.	.	.	.	.	.	.
=168	=168	=168	=168	=168	=168	=168	=168	=168
(4f	.	2.r	.	(4a	.	(4dd	.	i6
8e	.	.	.	8cc#	.	8ee	.	V64
4d	.	.	.	4dd	.	4ff	.	i
8c#)	.	.	.	8ee)	.	8gg)	.	V65
=169	=169	=169	=169	=169	=169	=169	=169	=169
(4d	.	2.r	.	(4ee	.	(4gg	.	i(94)
8G#X	.	.	.	8dd	.	8ffT	.	#viio7/V
4A')	.	.	.	4cc#')	.	4ee')	.	V\\
8r	.	.	.	8r	.	8a	.	.
=170	=170	=170	=170	=170	=170	=170	=170	=170
(4d	.	[4.a	.	(4f	.	(4ff	.	i
8e	.	.	.	8g	.	8cc#'	.	V43
4f')	.	4a]	.	4a')	.	4dd')	.	i6
(8f#X	.	(8a	.	(8cc	.	(8dd	.	V65/iv
=171	=171	=171	=171	=171	=171	=171	=171	=171
4g	.	[4.dd	.	4b-	.	4bb-	.	iv
8a	.	.	.	8cc	.	8ff#	.	V43/iv
4b-')	.	4dd])	.	4dd')	.	4gg')	.	iv6
8e'	.	8r	.	8bb-'	.	8ddd'	.	.bIII.vii%7
=172	=172	=172	=172	=172	=172	=172	=172	=172
4f'	.	8r	.	(8bb-L	.	(8dddL	.	I
.	.	8r	.	8aa)	.	8ccc)	.	.
8B'	.	8dd	.	8gg'J	.	8bb-'J	.	ii6
4c'	.	(8ddL	.	(8ggL	.	(8bb-L	.	V7
.	.	8cc)	.	8ff#)	.	8aa)	.	.
8C'	.	8b-'J	.	8ee'J	.	8gg'J	.	.
=173	=173	=173	=173	=173	=173	=173	=173	=173
4F	.	(4.b-	.	(4.ee	.	(4.gg	.	I(974)
8c	.	.	.	.	.	.	.	.
4f	.	4a)	.	4ff)	.	4ff)	.	I
8AA'	f	8A'	f	8a'	f	8r	.	.
=174	=174	=174	=174	=174	=174	=174	=174	=174
4F'	.	4f'	.	4ff'	.	2.r	.	i
8C#'	.	8c#'	.	8cc#'	.	.	.	.
4D'	.	4d'	.	4dd'	.	.	.	.
8AA'	.	8A'	.	8a'	.	.	.	.
=175	=175	=175	=175	=175	=175	=175	=175	=175
(4BB-	sf	(4B-	sf	(4b-	sf	4r	.	VI
16CLL	.	16cLL	.	16ccLL	.	8r	.	.
16BB-JJ	.	16B-JJ	.	16b-JJ	.	.	.	.
4AA')	.	4A')	.	4a')	.	8r	.	V\\
.	.	.	.	.	.	8r	.	.
8r	.	(16aaLL	p	8aa	p	8aa	p	V2
.	.	16ggJJ)	.	.	.	.	.	.
=176	=176	=176	=176	=176	=176	=176	=176	=176
2.r	.	(4ff	.	(4aa	.	(4ddd	.	i6
.	.	8ee	.	8ccc#	.	8eee	.	viio6
.	.	4dd	.	4ddd	.	4fff	.	i
.	.	8cc#)	.	8eee)	.	8ggg)	.	viio
=177	=177	=177	=177	=177	=177	=177	=177	=177
2.r	.	(4dd	.	(4eee	.	(4ggg	.	i(94)
.	.	8g#X	.	8ddd	.	8fffT	.	#viio7/V
.	.	4a')	.	4ccc#')	.	4eee')	.	V\\
.	.	8r	.	8r	.	(8aa	pp	.
=178	=178	=178	=178	=178	=178	=178	=178	=178
(4d	pp	[4.a	.	(4ff#	pp	4fff#	.	I.I
8e	.	.	.	8gg	.	8ccc#	.	V43
4f#')	.	4a]	.	4aa')	.	4ddd')	.	I6
(8f#	<	(8cc	<	8dd	<	(8ddd	<	V65/IV
=179	=179	=179	=179	=179	=179	=179	=179	=179
4g	.	4b	.	[4.dd	.	4bbb	.	IV
8a	[ >	8cc	[ >	.	.	8fff#	[ >	V43/IV
4b')	.	4dd')	.	4dd]	[ >	4ggg')	.	IV6
8r	]	8r	]	8r	]]	8r	]	.
=180	=180	=180	=180	=180	=180	=180	=180	=180
2.r	.	2.r	.	2.r	.	4r	.	.
.	.	.	.	.	.	8r	.	.
.	.	.	.	.	.	4r	.	.
.	.	.	.	.	.	(8ddd	.	.
=181	=181	=181	=181	=181	=181	=181	=181	=181
2.r	.	4r	.	2.r	.	4bbb	.	IV
.	.	8r	.	.	.	8fff#	.	.
.	.	8r	.	.	.	4ggg	.	.
.	.	8r	.	.	.	.	.	.
.	.	(8ff#	.	.	.	8ddd#X	.	viio6/ii
=182	=182	=182	=182	=182	=182	=182	=182	=182
4r	.	4gg	.	4r	.	4eee)	.	ii6
8r	.	8dd#X	.	(8ff#	.	[8bb	.	V6/ii
4r	.	4ee)	.	4gg)	.	4bb]	.	ii
8d	.	([8ee	.	([8gg	.	8bb-	.	ii%2
=183	=183	=183	=183	=183	=183	=183	=183	=183
(4c#	.	4ee]	.	4gg]	.	([4.aa	.	V65
8d	.	8dd	.	8ff#	.	.	.	.
4G	.	4b	.	4ee	.	8aaL]	.	I
.	.	.	.	.	.	8gg)	.	ii6
8A)	.	8g)	.	8cc#)	.	8ee'J	.	V7
=184	=184	=184	=184	=184	=184	=184	=184	=184
4D	.	4f#	.	(4dd	pp	4dd	.	I\\
8r	.	8r	.	8ee)	.	8r	.	.
4r	.	4r	.	8ff#'L	.	4r	.	.
.	.	.	.	8ee'	.	.	.	.
8r	.	8r	.	8dd'J	.	8r	.	.
=185	=185	=185	=185	=185	=185	=185	=185	=185
2.r	.	(4a	pp	4cc#'	.	4r	.	V
.	.	8b)	.	8b'	.	8r	.	.
.	.	8cc#'L	.	4a'	.	8r	.	V6
.	.	8b'	.	.	.	8ddd#XL	pp	#viio6/ii
.	.	8a'J	.	8r	.	8ddd#J	.	.
=186	=186	=186	=186	=186	=186	=186	=186	=186
2.r	.	4g'	.	(4ee	.	4eee	.	ii6
.	.	8f#'	.	8ff#)	.	8r	.	.
.	.	4e'	.	8gg'L	.	4r	.	ii
.	.	.	.	8ff#'	.	.	.	.
.	.	8r	.	8ee'J	.	8r	.	.
=187	=187	=187	=187	=187	=187	=187	=187	=187
2.r	.	(4b	.	4dd'	.	4r	.	IV
.	.	8cc#)	.	8cc#'	.	8r	.	.
.	.	8dd'L	.	4b'	.	8r	.	.
.	.	8cc#'	.	.	.	8eee#XL	.	#viio2/iii
.	.	8b'J	.	8r	.	8eee#J	.	.
=188	=188	=188	=188	=188	=188	=188	=188	=188
2.r	.	4a'	.	(4ff#	.	4fff#	.	iii6
.	.	8g#X'	.	8gg#X)	.	8r	.	.
.	.	4f#'	.	8aa'L	.	4r	.	iii
.	.	.	.	8gg#'	.	.	.	.
.	.	8r	.	8ff#'J	.	8r	.	.
=189	=189	=189	=189	=189	=189	=189	=189	=189
(4A	f	8A'L	f	(8ggL	f	(4gg 4ggg	f	V7
.	.	8a'	.	8cc#)	.	.	.	.
8B)	.	8a'J	.	8dd'J	.	8fff#)	.	.
8c#'L	.	8a'L	.	8ee'L	.	8eee'L	.	V65
8d'	.	8a'	.	8ff#'	.	8ddd'	.	.
8e'J	.	8a'J	.	8gg'J	.	8ccc#'J	.	.
=190	=190	=190	=190	=190	=190	=190	=190	=190
(8f#L	p	(8aL	p	8aa'	p	(8ccc#L	p	I6(7)
8dJ)	.	8f#J)	.	(8aaL	.	8ddd)	.	I
8r	.	8r	.	8ff#)	.	8aa'	.	.
(8GL	.	(8BL	.	8r	.	8r	.	IV
8BJ)	.	8dJ)	.	(8bb	.	(8ddd	.	.
8r	.	8r	.	8ggJ)	.	8bbJ)	.	.
=191	=191	=191	=191	=191	=191	=191	=191	=191
(8AL	.	(8dL	.	8r	.	8r	.	V(64)
8dJ)	.	8f#J)	.	(8ff#L	.	(8aaL	.	.
8r	.	8r	.	8dd)	.	8ff#)	.	.
(8AL	.	(8eL	.	8r	.	8r	.	V7
8eJ)	.	8gJ)	.	(8ee	.	(8gg	.	.
8r	.	8r	.	8cc#J)	.	8eeJ)	.	.
=192	=192	=192	=192	=192	=192	=192	=192	=192
4D	f	4f#	f	8ddL	f	8ddL	f	I\\
.	.	.	.	8dd'	.	8ddd'	.	.
8r	.	8r	.	8ee'J	.	8eee'J	.	.
4r	.	4r	.	8ff#'L	.	8fff#'L	.	.
.	.	.	.	8ee'	.	8eee'	.	.
8r	.	8r	.	8dd'J	.	8ddd'J	.	.
=193	=193	=193	=193	=193	=193	=193	=193	=193
(4A	sf	(4a	sf	4cc#'	.	4ccc#'	.	V
8B)	.	8b)	.	8b'	.	8bb'	.	.
8c'L	.	8cc'L	.	4a'	.	4aa'	.	v6
8B'	.	8b'	.	.	.	.	.	.
8A'J	.	8a'J	.	8r	.	8r	.	.
=194	=194	=194	=194	=194	=194	=194	=194	=194
4G'	.	4g'	.	(4ee	sf	(4eee	sf	ii6
8F#'	.	8f#'	.	8ff#)	.	8fff#)	.	.
4E'	.	4e'	.	8gg'L	.	8ggg'L	.	ii
.	.	.	.	8ff#'	.	8fff#'	.	.
8r	.	8r	.	8ee'J	.	8eee'J	.	.
=195	=195	=195	=195	=195	=195	=195	=195	=195
(4B	sf	(4b	sf	4dd'	.	4ddd'	.	vi
8c#)	.	8cc#)	.	8cc#'	.	8ccc#'	.	.
8d'L	.	8dd'L	.	4b'	.	4bb'	.	vi6
8c#'	.	8cc#'	.	.	.	.	.	.
8B'J	.	8b'J	.	8r	.	8r	.	.
=196	=196	=196	=196	=196	=196	=196	=196	=196
4A'	.	4a'	.	(4ff#	sf	(4fff#	sf	iii6
8G#X'	.	8g#X'	.	8gg#X)	.	8ggg#X)	.	.
4F#'	.	4.f#'	.	8aa'L	.	8aaa'L	.	iii
.	.	.	.	8gg#'	.	8aaa'	.	.
8r	.	.	.	8ff#'J	.	8aaa'J	.	.
=197	=197	=197	=197	=197	=197	=197	=197	=197
4A	sf	4c#	sf	4gg	sf	2.aaa	sf	V65
8B'	.	8d'	.	8ff#'	.	.	.	.
8c#'L	.	8e'L	.	8ee'L	.	.	.	.
8d'	.	8f#'	.	8dd'	.	.	.	.
8e'J	.	8g'J	.	8cc#'J	.	.	.	.
=198	=198	=198	=198	=198	=198	=198	=198	=198
4A	sf	4c#	sf	4gg	sf	2.aaa	sf	V65
8B'	.	8d'	.	8ff#'	.	.	.	.
8c#'L	.	8e'L	.	8ee'L	.	.	.	.
8d'	.	8f#'	.	8dd'	.	.	.	.
8e'J	.	8g'J	.	8cc#'J	.	.	.	.
=199	=199	=199	=199	=199	=199	=199	=199	=199
8e'L	sf	8c#'L	sf	8gg'L	sf	8aaa'L	sf	V43
8e'	.	8a'	.	8gg'	.	8ccc#'	.	.
8d'J	.	8a'J	.	8ff#'J	.	8ddd'J	.	.
8c#'L	.	8a'L	.	8ee'L	.	8eee'L	.	V65
8B'	.	8a'	.	8dd'	.	8fff#'	.	.
8A'J	.	8a'J	.	8cc#'J	.	8ggg'J	.	.
=200	=200	=200	=200	=200	=200	=200	=200	=200
4d	.	4a	.	8dd	.	4.fff#	.	I
.	.	.	.	(8ddL	.	.	.	.
8r	.	8r	.	8ddd)	.	.	.	.
4B	.	4d	.	8r	.	4.ggg	.	IV6
.	.	.	.	(8dd	.	.	.	.
8r	.	8r	.	8dddJ)	.	.	.	.
=201	=201	=201	=201	=201	=201	=201	=201	=201
4F#	.	4d	.	8r	.	4.aaa	.	I6
.	.	.	.	(8ddL	.	.	.	.
8r	.	8r	.	8ddd)	.	.	.	.
4G#X	.	4d	.	8r	.	4.bbb	.	V65/V
.	.	.	.	(8dd	.	.	.	.
8r	.	8r	.	8dddJ)	.	.	.	.
=202	=202	=202	=202	=202	=202	=202	=202	=202
(8AL	sf	[4.d	sf	[4.f#	sf	[4.a	sf	V(64)
8F#	.	.	.	.	.	.	.	.
8DJ)	.	.	.	.	.	.	.	.
8AAL	.	8dL]	.	8f#L]	.	8aL]	.	.
8AA	.	8e'	.	8g'	.	8ggg'	.	V7
8AAJ	.	8e'J	.	8g'J	.	8ccc#'J	.	.
=203	=203	=203	=203	=203	=203	=203	=203	=203
4D	.	4d	.	4f#	.	(16dddLL	.	I\\
.	.	.	.	.	.	16fff#)	.	.
.	.	.	.	.	.	16aaa'	.	.
.	.	.	.	.	.	16fff#'	.	.
8r	.	8r	.	8r	.	16ddd'	.	.
.	.	.	.	.	.	16fff#'JJ	.	.
4r	.	4r	.	4r	.	16aa'LL	.	.
.	.	.	.	.	.	16ddd'	.	.
.	.	.	.	.	.	16ff#'	.	.
.	.	.	.	.	.	16aa'	.	.
8r	.	8r	.	8r	.	16dd'	.	.
.	.	.	.	.	.	16ff#'JJ	.	.
=204	=204	=204	=204	=204	=204	=204	=204	=204
(8AL	sf	[4.d	sf	[4.f#	sf	[4.a	sf	V(64)
8F#	.	.	.	.	.	.	.	.
8DJ)	.	.	.	.	.	.	.	.
8AAL	.	8dL]	.	8f#L]	.	8aL]	.	.
8AA	.	8e'	.	8g'	.	8ggg'	.	V7
8AAJ	.	8e'J	.	8g'J	.	8ccc#'J	.	.
=205	=205	=205	=205	=205	=205	=205	=205	=205
4D	.	4d	.	4f#	.	(16dddLL	.	I
.	.	.	.	.	.	16fff#)	.	.
.	.	.	.	.	.	16aaa'	.	.
.	.	.	.	.	.	16fff#'	.	.
8r	.	8r	.	8r	.	16ddd'	.	.
.	.	.	.	.	.	16fff#'JJ	.	.
4r	.	4r	.	4r	.	16aa'LL	.	.
.	.	.	.	.	.	16ddd'	.	.
.	.	.	.	.	.	16ff#'	.	.
.	.	.	.	.	.	16aa'	.	.
8r	.	8r	.	8r	.	16dd'	.	.
.	.	.	.	.	.	16ff#'JJ	.	.
=206	=206	=206	=206	=206	=206	=206	=206	=206
8AL	sf	[4.d	sf	[4.f#	sf	[4.a	sf	V(64)
8F#	.	.	.	.	.	.	.	.
8DJ	.	.	.	.	.	.	.	.
8AAL	.	8dL]	.	8f#L]	.	8aL]	.	.
8AA	.	8e'	.	8g'	.	8ggg'	.	V7
8AAJ	.	8e'J	.	8g'J	.	8ccc#'J	.	.
=207	=207	=207	=207	=207	=207	=207	=207	=207
4D	.	4d	.	4f#	.	4ddd	.	I\\
8r	.	8r	.	8r	.	8r	.	.
4r	.	(4d'	p	4r	.	4r	.	.
8r	.	8d')	.	8r	.	8r	.	.
=208	=208	=208	=208	=208	=208	=208	=208	=208
!	!	!LO:TX:b:t=cresc.	!	!	!	!	!	!
2.r	.	(4d'	.	2.r	.	2.r	.	I
.	.	8d'	.	.	.	.	.	.
.	.	4d'	.	.	.	.	.	.
.	.	8d')	.	.	.	.	.	.
=209	=209	=209	=209	=209	=209	=209	=209	=209
[4.d	sfp	[4.cc	sfp	[4.ff#	sfp	[4.eee	sfp	V7(9)/IV
8dL]	.	8ccL]	.	8ff#L]	.	8eeeL]	.	.
8e'	.	8b'	.	8gg'	.	8ddd'	.	.
8f#'J	.	8a'J	.	8aa'J	.	8ccc'J	.	V65/IV
=210	=210	=210	=210	=210	=210	=210	=210	=210
8g'L	.	8g'L	.	8dd'L	.	8bb'L	.	IV
8f#'	.	8a'	.	8dd#X'	.	8aa'	.	#viio65/ii
8e'J	.	8b'J	.	8ee'J	.	8gg'J	.	ii
8a'L	.	8a'L	.	(8ddL	.	(8ff#L	.	V(64)
8a'	.	8a'	.	8ee)	.	8gg)	.	V7
8A'J	.	8a'J	.	8cc#'J	.	8ee'J	.	.
=211	=211	=211	=211	=211	=211	=211	=211	=211
4d	.	4a	.	4dd	.	(8eeL	.	I(9)
.	.	.	.	.	.	8ff#)	.	I\\
8r	.	8r	.	8r	.	8dd'J	.	.
!	!	!LO:TX:b:t=p cresc.	!	!	!	!	!	!
!LO:TX:b:t=p cresc.	!	!LO:TX:a:t=p cresc.	!	!	!	!LO:TX:b:t=p cresc.	!	!
(4d'	.	(4d'	.	(4d'	.	(4dd'	.	.
8d')	.	8d')	.	8d')	.	8dd')	.	.
=212	=212	=212	=212	=212	=212	=212	=212	=212
(4d'	.	(4d'	.	(4d'	.	(4dd'	.	I
8d')	.	8d')	.	8d')	.	8dd')	.	.
(4d'	.	(4d'	.	(4d'	.	(4dd'	.	.
8d')	.	8d')	.	8d')	.	8dd')	.	.
=213	=213	=213	=213	=213	=213	=213	=213	=213
[4.d#X	f	[4.f#	f	[4.ccc	f	[4.cccc	f	#viio7/ii
8d#L]	.	8f#L]	.	8cccL]	.	8ccccL]	.	.
8d#'	.	8f#'	.	8bb'	.	8bbb'	.	.
8d#'J	.	8f#'J	.	8bb'J	.	8aaa'J	.	.
=214	=214	=214	=214	=214	=214	=214	=214	=214
8e'L	.	8b'L	.	8bb'L	.	8ggg'L	.	ii
8f#'	.	8b'	.	8aa'	.	8fff#'	.	V43/ii
8g'J	.	8b'J	.	8gg'J	.	8eee'J	.	ii6
8a'L	.	8a'L	.	(8ff#L	.	(8dddL	.	V(64)
8a'	.	8a'	.	8gg)	.	8eee)	.	V7
8A'J	.	8a'J	.	8gg'J	.	8ccc#'J	.	.
=215	=215	=215	=215	=215	=215	=215	=215	=215
4D	p	8a	p	8ff#	p	(16dddLL	p	I\\
.	.	.	.	.	.	16fff#)	.	.
.	.	(8dL	.	(8f#L	.	16aaa'	.	.
.	.	.	.	.	.	16fff#'	.	.
8r	.	8f#)	.	8a)	.	16aaa'	.	.
.	.	.	.	.	.	16fff#'JJ	.	.
4A	.	8r	.	8r	.	(16gggLL	.	V7
.	.	.	.	.	.	16eee)	.	.
.	.	(8e	.	(8g	.	16ccc#'	.	.
.	.	.	.	.	.	16aa'	.	.
8r	.	8gJ)	.	8aJ)	.	16gg'	.	.
.	.	.	.	.	.	16ee'JJ	.	.
=216	=216	=216	=216	=216	=216	=216	=216	=216
4d	.	8r	.	8r	.	16ddLL	.	I
.	.	.	.	.	.	16ff#	.	.
.	.	(8f#L	.	(8ddL	.	16aa	.	.
.	.	.	.	.	.	16ddd	.	.
8r	.	8a)	.	8ff#)	.	16fff#	.	.
.	.	.	.	.	.	16dddJJ	.	.
4A	.	8r	.	8r	.	16ccc#LL	.	V7
.	.	.	.	.	.	16eee	.	.
.	.	(8g	.	(8ee	.	16ggg	.	.
.	.	.	.	.	.	16eee	.	.
8r	.	8aJ)	.	8ggJ)	.	16ggg	.	.
.	.	.	.	.	.	16eeeJJ	.	.
=217	=217	=217	=217	=217	=217	=217	=217	=217
4D	.	8r	.	8r	.	(16dddLL	.	I
.	.	.	.	.	.	16fff#)	.	.
.	.	(8dL	.	(8f#L	.	16aaa'	.	.
.	.	.	.	.	.	16fff#'	.	.
8r	.	8f#)	.	8a)	.	16aaa'	.	.
.	.	.	.	.	.	16fff#'JJ	.	.
4A	.	8r	.	8r	.	(16gggLL	.	V7
.	.	.	.	.	.	16eee)	.	.
.	.	(8e	.	(8g	.	16ccc#'	.	.
.	.	.	.	.	.	16aa'	.	.
8r	.	8gJ)	.	8aJ)	.	16gg'	.	.
.	.	.	.	.	.	16ee'JJ	.	.
=218	=218	=218	=218	=218	=218	=218	=218	=218
4d	.	8r	.	8r	.	16ddLL	.	I
.	.	.	.	.	.	16ff#	.	.
.	.	(8f#L	.	(8ddL	.	16aa	.	.
.	.	.	.	.	.	16ddd	.	.
8r	.	8a)	.	8ff#)	.	16fff#	.	.
.	.	.	.	.	.	16dddJJ	.	.
4A	.	8r	.	8r	.	16ccc#LL	.	V7
.	.	.	.	.	.	16eee	.	.
.	.	(8g	.	(8ee	.	16ggg	.	.
.	.	.	.	.	.	16eee	.	.
8r	.	8aJ)	.	8ggJ)	.	16ggg	.	.
.	.	.	.	.	.	16eeeJJ	.	.
=219	=219	=219	=219	=219	=219	=219	=219	=219
4D	.	8r	.	8r	.	(16dddLL	.	I
.	.	.	.	.	.	16eee	.	.
.	.	8f#L	.	8ddL	.	16fff#	.	.
.	.	.	.	.	.	16ggg	.	.
8r	.	8a	.	8ff#	.	16aaa	.	.
.	.	.	.	.	.	16fff#JJ	.	.
4d	.	8r	.	8r	.	16dddLL	.	.
.	.	.	.	.	.	16eee	.	.
.	.	8f#	.	8dd	.	16fff#	.	.
.	.	.	.	.	.	16ggg	.	.
8r	.	8aJ	.	8ff#J	.	16aaa	.	.
.	.	.	.	.	.	16fff#JJ)	.	.
=220	=220	=220	=220	=220	=220	=220	=220	=220
4D	.	4f#	.	4dd	.	4ddd	.	I\\
8r	.	8r	.	8r	.	8r	.	.
4r	.	4r	.	4r	.	4r	.	.
8r	.	8r	.	8r	.	8r	.	.
=221	=221	=221	=221	=221	=221	=221	=221	=221
4r	.	4r	.	4r	.	4r	.	.
8r	.	8r	.	8r	.	8r	.	.
!LO:TX:b:t=cresc.	!	!LO:TX:b:t=cresc.	!	!LO:TX:b:t=cresc.	!	!LO:TX:b:t=cresc.	!	!
(4F#'	.	(4F#'	.	(4f#'	.	(4f#'	.	.
8F#')	.	8F#')	.	8f#')	.	8f#')	.	.
=222:|!	=222:|!	=222:|!	=222:|!	=222:|!	=222:|!	=222:|!	=222:|!	=222:|!
(16DLL	f	4f#	f	4dd	f	4ddd	f	I
16E	.	.	.	.	.	.	.	.
16F#	.	.	.	.	.	.	.	.
16G	.	.	.	.	.	.	.	.
16A	.	8r	.	8r	.	8r	.	.
16F#JJ)	.	.	.	.	.	.	.	.
4D	.	4r	.	(16ddLL	.	4r	.	.
.	.	.	.	16ee	.	.	.	.
.	.	.	.	16ff#	.	.	.	.
.	.	.	.	16gg	.	.	.	.
8r	.	8r	.	16aa	.	8r	.	.
.	.	.	.	16ff#JJ)	.	.	.	.
=223	=223	=223	=223	=223	=223	=223	=223	=223
4d	p	8f#'L	p	8dd'L	p	4r	.	.
.	.	8g'	.	8ee'	.	.	.	.
8r	.	8a'J	.	8ff#'J	.	8r	.	.
4r	.	4r	.	4r	.	8ddd'L	p	.
.	.	.	.	.	.	8eee'	.	.
8r	.	8r	.	8r	.	8fff#'J	.	.
=224	=224	=224	=224	=224	=224	=224	=224	=224
4d	.	8dd'L	.	8ff#'L	.	4r	.	.
.	.	8ee'	.	8gg'	.	.	.	.
8r	.	8ff#'J	.	8aa'J	.	8r	.	.
4r	.	4r	.	4r	.	8fff#'L	.	.
.	.	.	.	.	.	8ggg'	.	.
8r	.	8r	.	8r	.	8aaa'J	.	.
=225	=225	=225	=225	=225	=225	=225	=225	=225
!	!	!	!	!LO:TX:b:t=cresc.	!	!	!	!
4r	.	4r	.	8dd'L	.	2.r	.	IV
.	.	.	.	8ee'	.	.	.	.
8r	.	8r	.	8ff#'J	.	.	.	.
!LO:TX:a:t=cresc.	!	!LO:TX:b:t=cresc.	!	!	!	!	!	!
8d'L	.	8a'L	.	8ff#'L	.	.	.	.
8e'	.	8a'	.	8gg'	.	.	.	.
8f#'J	.	8a'J	.	8aa'J	.	.	.	.
=226	=226	=226	=226	=226	=226	=226	=226	=226
8f#L	.	8ddL	.	8aaL	.	4r	.	I6
8g	.	8dd	.	8bb	.	.	.	.
8eJ	.	8ddJ	.	8ccc#J	.	8r	.	V64
!	!	!	!	!	!	!LO:TX:b:t=cresc.	!	!
4f#	.	4dd	.	4ddd	.	8aaaL	.	I6
.	.	.	.	.	.	8bbb	.	.
8r	.	8r	.	8r	.	8cccc#J	.	.
=227	=227	=227	=227	=227	=227	=227	=227	=227
4r	.	4r	.	4r	.	4dddd	.	.
8r	.	8r	.	8r	.	8r	.	.
!	!	!	!	!	!LO:DY:a	!	!	!
4A	f	4a	f	4a 4gg	f f	4a 4ee 4ccc#	.	V7
8r	.	8r	.	8r	.	8r	.	.
=228	=228	=228	=228	=228	=228	=228	=228	=228
4D	.	4d	.	4a 4ff#	.	4d 4a 4ff# 4ddd	.	I\\
8r	.	8r	.	8r	.	8r	.	.
4r	.	4r	.	4r	.	4r	.	.
8r	.	8r	.	8r	.	8r	.	.
==	==	==	==	==	==	==	==	==
*-	*-	*-	*-	*-	*-	*-	*-	*-
!!!system-decoration: s1,s2,s3,s4
